!!!!SEGMENT: pl-wtm--r-1681_stefani-jozef--polonez-z-dawnych-lat.krn
!!!cenid: 18xx:2381
!!!COM: Stefani, Józef
!!!COM-rismid: pe30024097
!!!CDT: 1800/04/16-1876/03/19
!!!CNT: Polish
!!!OTL: Polonez z dawnych lat
!!!PDT:
!!!AGN:
!!!SMS-siglum: PL-Wtm
!!!SMS-shelfmark: R 1681
!!!SMS-shelfwork: W
!!!SMS-variant:
!!!SMS-altvar:
!!!NIFC-rismid: 1001114544
!!!URL-scan: http://repozytorium.nifc.pl/skany/pl-wtm-nut--r1681
!!!ONB-nifc:
!!!key:
**kern	**dynam	**kern	**dynam	**kern	**dynam	**kern	**dynam	**kern	**kern	**dynam	**kern	**dynam	**kern	**dynam	**kern	**dynam	**kern	**dynam	**kern	**dynam	**kern	**dynam	**kern	**dynam
*part13	*part13	*part12	*part12	*part11	*part11	*part10	*part10	*part9	*part8	*part8	*part7	*part7	*part6	*part6	*part5	*part5	*part4	*part4	*part3	*part3	*part2	*part2	*part1	*part1
*staff13	*	*staff12	*	*staff11	*	*staff10	*	*staff9	*staff8	*	*staff7	*	*staff6	*	*staff5	*	*staff4	*	*staff3	*	*staff2	*	*staff1	*
*Icello	*	*Iviola	*	*Ivioln	*	*Ivioln	*	*Ivioln	*Itromt	*	*Iempty	*	*Itromp	*	*Ifagot	*	*Icor	*	*Ioboe	*	*Iflt	*	*Ipicco	*
*I"[Violoncello]	*	*I"[Viola]	*	*I"[Violino Secondo]	*	*I"[Violino Primo]	*	*I"Violino solo	*I"[Trombone]	*	*I"[Banda]	*	*I"[Trombe in C]	*	*I"[Fagotti]	*	*I"[Corno in G]	*	*I"[Oboe]	*	*I"[Flauto]	*	*I"[Flauto Piccolo]	*
*clefF4	*	*clefC3	*	*clefG2	*	*clefG2	*	*clefG2	*clefF4	*	*clefF4	*	*clefG2	*	*clefF4	*	*clefG2	*	*clefG2	*	*clefG2	*	*clefG2	*
*	*	*	*	*	*	*	*	*	*	*	*	*	*	*	*	*	*ITrd3c5	*	*	*	*	*	*ITrd0c0	*
*k[f#]	*	*k[f#]	*	*k[f#]	*	*k[f#]	*	*k[f#]	*k[f#]	*	*k[]	*	*k[f#]	*	*k[f#]	*	*k[f#]	*	*k[f#]	*	*k[f#]	*	*k[f#]	*
*G:	*	*G:	*	*G:	*	*G:	*	*G:	*G:	*	*G:	*	*G:	*	*G:	*	*G:	*	*G:	*	*G:	*	*G:	*
*	*	*	*	*	*	*	*	*	*	*	*	*	*	*	*	*	*	*	*	*	*	*	*	*
*M3/4	*	*M3/4	*	*M3/4	*	*M3/4	*	*M3/4	*M3/4	*	*M3/4	*	*M3/4	*	*M3/4	*	*M3/4	*	*M3/4	*	*M3/4	*	*M3/4	*
*>[A,B,B,C,B,B,C,D,E,E,F,E,E,F,A,B,B,C,B,B,C]	*	*>[A,B,B,C,B,B,C,D,E,E,F,E,E,F,A,B,B,C,B,B,C]	*	*>[A,B,B,C,B,B,C,D,E,E,F,E,E,F,A,B,B,C,B,B,C]	*	*>[A,B,B,C,B,B,C,D,E,E,F,E,E,F,A,B,B,C,B,B,C]	*	*>[A,B,B,C,B,B,C,D,E,E,F,E,E,F,A,B,B,C,B,B,C]	*>[A,B,B,C,B,B,C,D,E,E,F,E,E,F,A,B,B,C,B,B,C]	*	*>[A,B,B,C,B,B,C,D,E,E,F,E,E,F,A,B,B,C,B,B,C]	*	*>[A,B,B,C,B,B,C,D,E,E,F,E,E,F,A,B,B,C,B,B,C]	*	*>[A,B,B,C,B,B,C,D,E,E,F,E,E,F,A,B,B,C,B,B,C]	*	*>[A,B,B,C,B,B,C,D,E,E,F,E,E,F,A,B,B,C,B,B,C]	*	*>[A,B,B,C,B,B,C,D,E,E,F,E,E,F,A,B,B,C,B,B,C]	*	*>[A,B,B,C,B,B,C,D,E,E,F,E,E,F,A,B,B,C,B,B,C]	*	*>[A,B,B,C,B,B,C,D,E,E,F,E,E,F,A,B,B,C,B,B,C]	*
=1	=1	=1	=1	=1	=1	=1	=1	=1	=1	=1	=1	=1	=1	=1	=1	=1	=1	=1	=1	=1	=1	=1	=1	=1
*all\right	*	*all\right	*	*all\right	*	*all\right	*	*all\right	*all\right	*	*all\right	*	*all\right	*	*all\right	*	*all\right	*	*all\right	*	*all\right	*	*all\right	*
*2\right	*	*2\right	*	*2\right	*	*2\right	*	*2\right	*2\right	*	*2\right	*	*2\right	*	*2\right	*	*2\right	*	*2\right	*	*2\right	*	*2\right	*
*>A	*	*>A	*	*>A	*	*>A	*	*>A	*>A	*	*>A	*	*>A	*	*>A	*	*>A	*	*>A	*	*>A	*	*>A	*
.	.	.	.	.	.	.	.	.	.	.	32qqG/LLL	.	.	.	.	.	.	.	.	.	.	.	.	.
!	!	!	!	!	!	!	!	!	!	!	!	!	!	!	!	!	!	!	!	!	!	!	!LO:TX:t=P:problem=w źródle instrumenty nie są podpisane; nazwy zostały nadane na podstawie domniemania i analogii do innych partytur Stefaniego	!
!	!	!	!	!	!	!	!	!	!	!	!	!	!	!	!LO:TX:t=P:problem=mixed beam	!	!	!	!	!	!	!	!LO:TX:a:t=P:problem=w źródle brak adnotacji "fine", dlatego zakodowana forma utworu może być wątpliwa	!
.	.	.	.	.	.	.	.	.	.	.	32qqG/JJJ	.	.	.	.	.	.	.	.	.	.	.	.	.
*	*	*	*	*	*	*	*	*	*	*	*^	*	*	*	*	*	*	*	*	*	*	*	*	*
!	!LO:DY:b:rj	!	!	!	!LO:DY:b:rj	!	!LO:DY:b:rj	!LO:TX:a:t=P:problem=w źródle partia Violino solo pojawia się dopiero w takcie 29	!	!	!	!	!	!	!	!	!	!	!LO:DY:b:rj	!	!	!	!LO:DY:b:rj	!	!LO:DY:b:rj
4G\	f	4g 4B 4D\	.	4gg 4b 4d\	f	4gg 4b 4d\	f	2.ryy	4G\	.	4G/	4C\	.	8b 8g/|	.	8GG/L	.	8a 8d/	f	8b 8g/	.	8bb'\	f	8gg\|	f
.	.	.	.	.	.	.	.	.	.	.	.	.	.	(<16a#XLL 16f#/	.	8G\	.	8r	.	(<16a#XLL 16f#/	.	(>16aa#X\LL	.	(>(>16ff#\LL	.
.	.	.	.	.	.	.	.	.	.	.	.	.	.	16bJJ 16g/	.	.	.	.	.	16bJJ 16g/	.	16bb\JJ	.	16gg\JJ)	.
4r	.	4r	.	4r	.	4r	.	.	4r	.	4r	4ryy	.	8ccL 8an/	.	8D\	.	4r	.	8ccL 8a#/	.	8ccc\L	.	8aa\L	.
.	.	.	.	.	.	.	.	.	.	.	.	.	.	8b 8g/)	.	8G\	.	.	.	8b 8g/)	.	8bb\)	.	8gg\)	.
4r	.	4r	.	4r	.	4r	.	.	4r	.	4r	4ryy	.	(<8an 8f#/	.	8D\	.	4r	.	(<8an 8f#/	.	(>8aan\	.	(>8ff#\	.
.	.	.	.	.	.	.	.	.	.	.	.	.	.	8bJ 8g/)	.	8G\J	.	.	.	8bJ 8g/)	.	8bb\J)	.	8gg\J)	.
*	*	*	*	*	*	*	*	*	*	*	*v	*v	*	*	*	*	*	*	*	*	*	*	*	*	*
=2	=2	=2	=2	=2	=2	=2	=2	=2	=2	=2	=2	=2	=2	=2	=2	=2	=2	=2	=2	=2	=2	=2	=2	=2
*	*	*	*	*	*	*	*	*	*	*	*	*	*	*	*	*	*^	*	*	*	*	*	*	*
*	*	*	*	*	*	*	*	*	*	*	*	*	*	*	*tremolo	*	*	*	*	*	*	*	*	*	*
4r	.	4r	.	4r	.	4r	.	2.ryy	2.r	.	2.r	.	(>8ddL 8b\	.	8D\L	.	8r	8ryy	.	(>8ddL 8b\	.	(>8ddd\L	.	(>8bb\L	.
.	.	.	.	.	.	.	.	.	.	.	.	.	8ccJ 8a\)	.	8d\	.	8a/	8a\	.	8ccJ 8a\)	.	8ccc\J)	.	8aa\J)	.
*	*	*	*	*	*	*	*	*	*	*	*	*	*	*	*	*	*tremolo	*tremolo	*	*	*	*	*	*	*
4r	.	4r	.	4r	.	4r	.	.	.	.	.	.	4.a 4.f#/	.	8D\	.	8a/L	8a\L	.	4.a 4.f#/	.	4.aa\	.	4.ff#\	.
.	.	.	.	.	.	.	.	.	.	.	.	.	.	.	8d\	.	8a/	8a\	.	.	.	.	.	.	.
8r	.	8r	.	8r	.	8r	.	.	.	.	.	.	.	.	8D\	.	8a/	8a\	.	.	.	.	.	.	.
32r	.	32r	.	32r	.	32r	.	.	.	.	.	.	8cc 8a\	.	8d\J	.	8a/J	8a\J	.	8cc 8a\	.	8ccc\	.	8aa\	.
(>32D\LLL	.	(>32d\LLL	.	(>32dd\LLL	.	(>32dd\LLL	.	.	.	.	.	.	.	.	.	.	.	.	.	.	.	.	.	.	.
32E\	.	32e\	.	32ee\	.	32ee\	.	.	.	.	.	.	.	.	.	.	.	.	.	.	.	.	.	.	.
32F#\JJJ	.	32f#\JJJ	.	32ff#\JJJ)	.	32ff#\JJJ	.	.	.	.	.	.	.	.	.	.	.	.	.	.	.	.	.	.	.
*	*	*	*	*	*	*	*	*	*	*	*	*	*	*	*Xtremolo	*	*Xtremolo	*Xtremolo	*	*	*	*	*	*	*
*	*	*	*	*	*	*	*	*	*	*	*	*	*	*	*	*	*v	*v	*	*	*	*	*	*	*
=3	=3	=3	=3	=3	=3	=3	=3	=3	=3	=3	=3	=3	=3	=3	=3	=3	=3	=3	=3	=3	=3	=3	=3	=3
.	.	.	.	.	.	.	.	.	.	.	32qqG/LLL	.	.	.	.	.	.	.	.	.	.	.	.	.
.	.	.	.	.	.	.	.	.	.	.	32qqG/JJJ	.	.	.	.	.	.	.	.	.	.	.	.	.
*	*	*	*	*	*	*	*	*	*	*	*^	*	*	*	*	*	*	*	*	*	*	*	*	*
8G\)	.	8g\)	.	8gg\	.	8gg\)	.	2.ryy	8G\	.	8G/	8C\	.	8bL 8g/|	.	8GG\L	.	8a 8d/	.	8bL 8g'/	.	8bb\L|	.	8gg\L|	.
8r	.	8r	.	8r	.	8r	.	.	8r	.	8r	8ryy	.	(<16a#XL 16f#/	.	8G\	.	8r	.	(<16a#XL 16f#/	.	(>16aa#X\L	.	(>16ff#\L	.
.	.	.	.	.	.	.	.	.	.	.	.	.	.	16bJJ 16g/)	.	.	.	.	.	16bJJ 16g/)	.	16bb\JJ)	.	16gg\JJ)	.
4r	.	4r	.	4r	.	4r	.	.	4r	.	4r	4ryy	.	(<16ccLL 16a#/	.	8D\	.	2r	.	(<16ccLL 16an/	.	(>16ccc\LL	.	(>16aa\LL	.
.	.	.	.	.	.	.	.	.	.	.	.	.	.	16b 16g/	.	.	.	.	.	16b 16g/	.	16bb\	.	16gg\	.
.	.	.	.	.	.	.	.	.	.	.	.	.	.	16an 16f#/	.	8G\	.	.	.	16an 16f#/	.	16aa#\	.	16ff#\	.
.	.	.	.	.	.	.	.	.	.	.	.	.	.	16bJJ 16g/)	.	.	.	.	.	16bJJ 16g/)	.	16bb\JJ)	.	16gg\JJ)	.
4r	.	4r	.	4r	.	4r	.	.	4r	.	4r	4ryy	.	(<16ccLL 16a/	.	8D\	.	.	.	(<16ccLL 16a/	.	(>16ccc\LL	.	(>16aa\LL	.
.	.	.	.	.	.	.	.	.	.	.	.	.	.	16b 16g/	.	.	.	.	.	16b 16g/	.	16bb\	.	16gg\	.
.	.	.	.	.	.	.	.	.	.	.	.	.	.	16a 16f#/	.	8G\J	.	.	.	16a 16f#/	.	16aa#\	.	16ff#\	.
.	.	.	.	.	.	.	.	.	.	.	.	.	.	16bJJ 16g/)	.	.	.	.	.	16bJJ 16g/)	.	16bb\JJ)	.	16gg\JJ)	.
*	*	*	*	*	*	*	*	*	*	*	*v	*v	*	*	*	*	*	*	*	*	*	*	*	*	*
!!LO:PB:g=original
=4	=4	=4	=4	=4	=4	=4	=4	=4	=4	=4	=4	=4	=4	=4	=4	=4	=4	=4	=4	=4	=4	=4	=4	=4
*	*	*	*	*	*	*	*	*	*	*	*	*	*	*	*	*	*^	*	*	*	*	*	*	*
!	!	!	!	!	!	!	!	!	!LO:TX:t=P:problem=uwaga, partia trombone przeniesiona w źródle o kilka linii niżej	!	!	!	!	!	!	!	!	!	!	!	!	!	!	!	!
!	!	!	!	!	!	!	!	!	!LO:TX:a:i:t=Trombone	!	!	!	!	!	!	!	!	!	!	!	!	!	!	!	!
4r	.	4r	.	4r	.	4r	.	2.ryy	2.r	.	2.r	.	(>16ddLL 16b\	.	8D\L	.	8r	8ryy	.	(>16ddLL 16b\	.	(>16ddd\LL	.	(>16bb\LL	.
.	.	.	.	.	.	.	.	.	.	.	.	.	16cc#X 16a#X\	.	.	.	.	.	.	16cc#X 16a#X\	.	16ccc#X\	.	16aa#X\	.
.	.	.	.	.	.	.	.	.	.	.	.	.	16dd 16b\	.	8d\	.	8a/	8a\	.	16dd 16b\	.	16ddd\	.	16bb\	.
.	.	.	.	.	.	.	.	.	.	.	.	.	16ccnJJ 16an\	.	.	.	.	.	.	16ccnJJ 16an\)	.	16cccn\JJ)	.	16aan\JJ)	.
*	*	*	*	*	*	*	*	*	*	*	*	*	*	*	*	*	*tremolo	*tremolo	*	*	*	*	*	*	*
4r	.	4r	.	4r	.	4r	.	.	.	.	.	.	4.a 4.f#/)	.	8A\	.	8a/L	8a\L	.	4.a 4.f#/	.	4.aa\	.	4.ff#\	.
.	.	.	.	.	.	.	.	.	.	.	.	.	.	.	8d\	.	8a/	8a\	.	.	.	.	.	.	.
8r	.	8r	.	8r	.	8r	.	.	.	.	.	.	.	.	8D\	.	8a/	8a\	.	.	.	.	.	.	.
32r	.	32r	.	32r	.	32r	.	.	.	.	.	.	8cc 8a/	.	8d\J	.	8a/J	8a\J	.	8cc 8a\	.	8ccc\	.	8aa\	.
(>32D\LLL	.	(>32d\LLL	.	(>32dd\LLL	.	(>32dd\LLL	.	.	.	.	.	.	.	.	.	.	.	.	.	.	.	.	.	.	.
32E\	.	32e\	.	32ee\	.	32ee\	.	.	.	.	.	.	.	.	.	.	.	.	.	.	.	.	.	.	.
32F#\JJJ	.	32f#\JJJ	.	32ff#\JJJ	.	32ff#\JJJ)	.	.	.	.	.	.	.	.	.	.	.	.	.	.	.	.	.	.	.
*	*	*	*	*	*	*	*	*	*	*	*	*	*	*	*	*	*Xtremolo	*Xtremolo	*	*	*	*	*	*	*
=5	=5	=5	=5	=5	=5	=5	=5	=5	=5	=5	=5	=5	=5	=5	=5	=5	=5	=5	=5	=5	=5	=5	=5	=5	=5
.	.	.	.	.	.	.	.	.	.	.	16qqG/LL	.	.	.	.	.	.	.	.	.	.	.	.	.	.
!	!	!	!	!	!	!	!	!	!	!	!	!	!	!	!LO:TX:t=P:problem=mixed beam	!	!	!	!	!	!	!	!	!	!
.	.	.	.	.	.	.	.	.	.	.	16qqG/JJ	.	.	.	.	.	.	.	.	.	.	.	.	.	.
!	!	!	!	!	!	!	!	!	!	!LO:DY:b:rj	!	!	!	!	!	!	!	!	!	!	!	!	!	!	!
*	*	*	*	*	*	*	*	*	*	*	*^	*	*	*	*	*	*	*	*	*	*	*	*	*	*
!LO:TX:t=P:problem=mixed beam	!	!LO:TX:t=P:problem=mixed beam	!	!	!	!	!	!	!	!	!	!	!	!	!	!	!	!	!	!	!	!	!	!	!	!
8G\L)	.	8g\L)	.	8gg\L)	.	8gg\L|	.	2.ryy	8G\	f	8G/	8C\	.	8b 8g/	.	8G\L	.	8a/	8a\	.	8b 8g/|>	.	8bb\	.	8gg\L|	.
(>16GG/L	.	(>16G/L	.	(>16gg\L	.	(>16bb\L	.	.	8r	.	8r	8ryy	.	8r	.	(>16GG/L	.	8r	8ryy	.	(>16bbLL 16gg\	.	8r	.	(>16bb\L	.
16AA/JJ	.	16A/JJ	.	16ff#\JJ	.	16aa\JJ	.	.	.	.	.	.	.	.	.	16AA/JJ	.	.	.	.	16aaJJ 16ff#\	.	.	.	16aa\JJ	.
16BB/LL	.	16B\LL	.	16ee\LL	.	16gg\LL	.	.	4r	.	4r	4ryy	.	4r	.	16BB/LL	.	4r	4ryy	.	16ggLL 16ee\	.	4r	.	16gg\LL	.
16C/	.	16c\	.	16dd\	.	16ff#\	.	.	.	.	.	.	.	.	.	16C/	.	.	.	.	16ff# 16dd\	.	.	.	16ff#\	.
16D/	.	16d\	.	16cc\	.	16ee\	.	.	.	.	.	.	.	.	.	16D/	.	.	.	.	16ee 16cc\	.	.	.	16ee\)	.
16E/JJ	.	16e\JJ	.	16b\JJ	.	16dd\JJ	.	.	.	.	.	.	.	.	.	16E/JJ	.	.	.	.	16ddJJ 16b\	.	.	.	(16dd\JJ	.
!LO:TX:t=P:problem=mixed beam	!	!LO:TX:t=P:problem=mixed beam	!	!	!	!	!	!	!	!	!	!	!	!	!	!LO:TX:t=P:problem=mixed beam	!	!	!	!	!	!	!	!	!	!
16F#\LL	.	16f#\LL	.	16a/LL	.	16cc\LL	.	.	8r	.	4r	4ryy	.	8r	.	16F#\LL	.	8r	8ryy	.	16ccLL 16a\	.	8r	.	(16cc\LL	.
16G\	.	16g\	.	16g/	.	16b\	.	.	.	.	.	.	.	.	.	16G\	.	.	.	.	16b 16g\	.	.	.	16b\	.
16A\	.	16a\	.	16f#/	.	16a\	.	.	8AA/	.	.	.	.	16aLL 16f#/	.	16A\	.	16a/LL	16a\LL	.	16a 16f#\	.	(>16ff#\LL	.	16a\	.
16AA/JJ)	.	16A/JJ)	.	16g/JJ)	.	16cc#X\JJ)	.	.	.	.	.	.	.	16cc#XJJ 16e/	.	16AA/JJ)	.	16b/JJ	16g#X\JJ	.	16cc#XJJ 16g\)	.	16gg\JJ)	.	16cc#X\JJ))	.
=6	=6	=6	=6	=6	=6	=6	=6	=6	=6	=6	=6	=6	=6	=6	=6	=6	=6	=6	=6	=6	=6	=6	=6	=6	=6	=6
*	*	*	*	*	*	*	*	*	*	*	*	*	*	*^	*	*	*	*	*	*	*^	*	*	*	*	*
8D\	.	8d\	.	8f#/	.	8dd\	.	2.ryy	8D/	.	4rA	4rAA	.	8dd 8f#/	4ryy	.	8D\	.	8a/	8a\	.	8dd 8f#/	4ryy	.	8ff#\	.	8dd'\	.
8r	.	8r	.	8r	.	8r	.	.	8r	.	.	.	.	8r	.	.	(>16c#X\LL	.	(>16g#X\LL	8ryy	.	8r	.	.	(>16cc#X\LL	.	8r	.
.	.	.	.	.	.	.	.	.	.	.	.	.	.	.	.	.	16e\JJ	.	16b\JJ	.	.	.	.	.	16ee\JJ)	.	.	.
8.r	.	8.r	.	8.r	.	8.r	.	.	8.r	.	4rA	4rAA	.	8.r	8.ryy	.	8.d\L)	.	8.a\L)	4ryy	.	8.r	8.ryy	.	8.dd\L	.	8.r	.
16cn\|	.	16a 16c\	.	16f#/|	.	16ff#\|	.	.	16cn\	.	.	.	.	16f#/|	16d\	.	16cn\K	.	16a\K	.	.	16f#/|	16d\	.	16a\Jk|	.	16ff#\|	.
8B'\L	.	8gL 8B\	.	(<16g/LL	.	(>16gg\LL	.	.	8B\L	.	4G/	4C\	.	(>16g/LL	8d\L	.	8B\	.	8a 8d\	4ryy	.	(>16g/LL	8d\L	.	(<16g/LL	.	(>16gg\LL	.
.	.	.	.	16f#/	.	16ff#\	.	.	.	.	.	.	.	16f#/	.	.	.	.	.	.	.	16f#/	.	.	16f#/	.	16ff#\	.
8G'\J	.	8gJ 8B\	.	16g/	.	16gg\	.	.	8G\J	.	.	.	.	16g/	8g\J	.	8G\J	.	8aJ 8f#\	.	.	16g/	8g\J	.	16g/	.	16gg\	.
.	.	.	.	16b/JJ	.	16bb\JJ	.	.	.	.	.	.	.	16b/JJ)	.	.	.	.	.	.	.	16b/JJ	.	.	16b/JJ)	.	16bb\JJ	.
=7	=7	=7	=7	=7	=7	=7	=7	=7	=7	=7	=7	=7	=7	=7	=7	=7	=7	=7	=7	=7	=7	=7	=7	=7	=7	=7	=7	=7
8D'\	.	8f# 8A\	.	8a/)	.	8aa\)	.	2.ryy	8D\	.	8G/	8C\	.	8a/	8f#\	.	8d\	.	8a/	8a\	.	8a/)	8f#\	.	8dd\	.	8aa\)	.
8r	.	8r	.	8r	.	8r	.	.	8r	.	8rA	8rAA	.	8r	8ryy	.	(>16c#X\LL	.	(>16g#X\LL	8ryy	.	8r	8ryy	.	(>16cc#X\LL	.	8r	.
.	.	.	.	.	.	.	.	.	.	.	.	.	.	.	.	.	16e\JJ)	.	16b\JJ	.	.	.	.	.	16ee\JJ)	.	.	.
!	!	!	!	!	!	!	!	!	!	!	!	!	!	!	!	!	!	!	!LO:N:vis=8.	!	!	!	!	!	!	!	!	!
8.r	.	8.r	.	8.r	.	8.r	.	.	8.r	.	4rA	4rAA	.	8.r	8.ryy	.	8d\L	.	8a/)	8a\L	.	8.r	4ryy	.	8.dd\L	.	8.r	.
.	.	.	.	.	.	.	.	.	.	.	.	.	.	.	.	.	8cn\	.	8a/L	8a\	.	.	.	.	.	.	.	.
16c\	.	16a 16c\	.	16f#/|	.	16ff#\|	.	.	16c\	.	.	.	.	16f#/|	16d\	.	.	.	.	.	.	16f# 16d/|>	.	.	16a\Jk|	.	16ff#\|	.
8B\L	.	8gL 8B\	.	(<16g/LL	.	(>16gg\LL	.	.	8B\L	.	4G/	4C\	.	(>16g/LL	8d\L	.	8B\	.	8a/	8d\	.	(>16g/LL	8d\L	.	(<16g/LL	.	(>16gg\LL	.
.	.	.	.	16f#/	.	16ff#\	.	.	.	.	.	.	.	16f#/	.	.	.	.	.	.	.	16f#/	.	.	16f#/	.	16ff#\	.
8G\J	.	8gJ 8B\	.	16g/	.	16gg\	.	.	8G\J	.	.	.	.	16g/	8g\J	.	8G\J	.	8a/J	8f#\J	.	16g/	8g\J	.	16g/	.	16gg\	.
.	.	.	.	16b/JJ	.	16bb\JJ)	.	.	.	.	.	.	.	16b/JJ	.	.	.	.	.	.	.	16b/JJ	.	.	16b/JJ)	.	16bb\JJ)	.
!!LO:PB:g=original
=8	=8	=8	=8	=8	=8	=8	=8	=8	=8	=8	=8	=8	=8	=8	=8	=8	=8	=8	=8	=8	=8	=8	=8	=8	=8	=8	=8	=8
!	!	!	!	!	!	!	!	!	!LO:TX:a:i:t=Trombone	!	!	!	!	!	!	!	!	!	!	!	!	!	!	!	!	!	!	!
!	!	!	!	!	!	!	!	!	!LO:TX:t=P:problem=partia trombone wraca na swoje miejsce	!	!	!	!	!	!	!	!	!	!	!	!	!	!	!	!	!	!	!
!	!	!	!	!	!	!	!	!	!	!	!	!	!	!	!	!	!	!	!	!	!	!	!LO:TX:a:t=P:problem=w źródle brak zakończenia łuku	!	!	!	!	!
!	!	!	!	!LO:TX:b:t=P:problem=w źródle brak dokończenia łuku	!	!	!	!	!	!	!	!	!	!	!LO:TX:a:t=P:problem=w źródle brak zakończenia łuku	!	!	!	!	!	!	!	!	!	!	!	!	!
8D\	.	8f# 8A/	.	8dd 8d/)	.	8ddd 8dd 8d\	.	2.ryy	8D\	.	8G/	8C\	.	8dd/	8dd 8f#\)	.	8D\	.	8a/	8a\	.	8a/)	8f#\	.	8dd\	.	8ddd\	.
8r	.	8r	.	8r	.	8r	.	.	8r	.	8r	8ryy	.	(>16d/LL	8r	.	8r	.	8r	8ryy	.	8r	8ryy	.	(>16dd\LL	.	(>16dd\LL	.
.	.	.	.	.	.	.	.	.	.	.	.	.	.	16d#X/JJ	.	.	.	.	.	.	.	.	.	.	16dd#X\JJ	.	16dd#X\JJ	.
4r	.	4r	.	4r	.	4r	.	.	4r	.	4r	4ryy	.	8e/L)	4r	.	4r	.	4r	4ryy	.	4r	4ryy	.	8ee\L)	.	8ee\L)	.
.	.	.	.	.	.	.	.	.	.	.	.	.	.	8f#'>/	.	.	.	.	.	.	.	.	.	.	8ff#'\	.	8ff#'\	.
4r	.	4r	.	4r	.	4r	.	.	4r	.	4r	4ryy	.	8g'>/	4r	.	4r	.	4r	4ryy	.	4r	4ryy	.	8gg'\	.	8gg'\	.
.	.	.	.	.	.	.	.	.	.	.	.	.	.	8a'>/J	.	.	.	.	.	.	.	.	.	.	8aa'\J	.	8aa'\J	.
*	*	*	*	*	*	*	*	*	*	*	*v	*v	*	*	*	*	*	*	*	*	*	*	*	*	*	*	*	*
!	!	!	!	!	!	!LO:TX:t=[segno]	!	!	!	!	!	!	!	!	!	!	!	!	!	!	!	!	!	!	!	!LO:TX:a:t=[segno]	!
=9||	=9||	=9||	=9||	=9||	=9||	=9||	=9||	=9||	=9||	=9||	=9||	=9||	=9||	=9||	=9||	=9||	=9||	=9||	=9||	=9||	=9||	=9||	=9||	=9||	=9||	=9||	=9||
*>B	*	*>B	*	*>B	*	*>B	*	*>B	*>B	*	*>B	*	*>B	*>B	*	*>B	*	*>B	*>B	*	*>B	*>B	*	*>B	*	*>B	*
!	!LO:DY:b:rj	!	!	!	!LO:DY:b	!	!	!	!	!	!	!	!	!	!	!	!	!	!	!	!	!	!	!	!	!	!
4G\	p	8r	.	8r	p	4r	.	2.ryy	2.r	.	2.r	.	(>16b/LL	2.r	.	4r	.	4r	4ryy	.	4rdd	2.rf	.	(>16bb\LL	.	(>16bb\LL	.
.	.	.	.	.	.	.	.	.	.	.	.	.	16cc/	.	.	.	.	.	.	.	.	.	.	16ccc\	.	16ccc\	.
.	.	8dL 8B\	.	8g/L	.	.	.	.	.	.	.	.	16b/	.	.	.	.	.	.	.	.	.	.	16bb\	.	16bb\	.
.	.	.	.	.	.	.	.	.	.	.	.	.	16a/JJ)	.	.	.	.	.	.	.	.	.	.	16aa\JJ)	.	16aa\JJ	.
8r	.	8dJ 8B\	.	8g/J	.	8r	.	.	.	.	.	.	8g'>/	.	.	8r	.	8r	8ryy	.	8rdd	.	.	8gg\	.	8gg\L)	.
!	!LO:DY:b	!	!LO:DY:b	!	!LO:DY:b	!	!LO:DY:b	!	!	!	!	!	!	!	!	!	!	!	!	!LO:DY:b	!	!	!	!	!	!	!
8D\L	sf	8dL 8A\	sf	8f#/L	sf	8ff#'\L	fp	.	.	.	.	.	8r	.	.	8A\L	.	8a/L	8a\L	sfp	8f#'</L	.	.	8r	.	8ff#'\	.
8G\	.	8d 8B\	.	8g/	.	8gg'\	.	.	.	.	.	.	4r	.	.	8B\	.	8a/	8a\	.	8g'</	.	.	4r	.	8gg'\	.
8G\J	.	8dJ 8B\	.	8g/J	.	8bb'\J	.	.	.	.	.	.	.	.	.	8G\J	.	8a/J	8aJ 8d\	.	8b'</J	.	.	.	.	8bb'\J	.
=10	=10	=10	=10	=10	=10	=10	=10	=10	=10	=10	=10	=10	=10	=10	=10	=10	=10	=10	=10	=10	=10	=10	=10	=10	=10	=10	=10
4F#\	.	8r	.	8r	.	(>16ddd\LL	.	2.ryy	2.r	.	2.r	.	4r	2.rf	.	[>4A\	.	[>4a/	4a 4c#X\	.	16dd/LL	2.rf	.	4r	.	(>16ddd\LL	.
.	.	.	.	.	.	16eee\	.	.	.	.	.	.	.	.	.	.	.	.	.	.	16ee/	.	.	.	.	16eee\	.
.	.	8f# 8A\	.	8a 8d/	.	16ddd\	.	.	.	.	.	.	.	.	.	.	.	.	.	.	16dd/	.	.	.	.	16ddd\	.
.	.	.	.	.	.	16ccc\JJ	.	.	.	.	.	.	.	.	.	.	.	.	.	.	16cc/JJ	.	.	.	.	16ccc\JJ	.
4r	.	8f#L 8A\	.	8aL 8d/	.	4.aa\)	.	.	.	.	.	.	4r	.	.	8A\L]	.	8a/L]	8a\L	.	4.a/	.	.	4r	.	4.aa\)	.
.	.	8f# 8A\	.	8a 8d/	.	.	.	.	.	.	.	.	.	.	.	8A\	.	8a'>/	8a\	.	.	.	.	.	.	.	.
4r	.	8f#J 8A\	.	8aJ 8d/	.	.	.	.	.	.	.	.	8r	.	.	8A\J	.	8a'>/J	8a\J	.	.	.	.	8r	.	.	.
.	.	8r	.	8r	.	8r	.	.	.	.	.	.	8b/	.	.	8r	.	8r	8r	.	8r	.	.	8bb\	.	8bb\	.
*	*	*	*	*	*	*	*	*	*	*	*	*	*	*	*	*	*	*v	*v	*	*	*	*	*	*	*	*
=11	=11	=11	=11	=11	=11	=11	=11	=11	=11	=11	=11	=11	=11	=11	=11	=11	=11	=11	=11	=11	=11	=11	=11	=11	=11	=11
4E\	.	8r	.	8r	.	4r	.	2.ryy	2.r	.	2.r	.	(>16g/LL	2.r	.	4r	.	4r	.	2.rf	2.rdd	.	(>16gg\LL	.	(>16gg\LL	.
.	.	.	.	.	.	.	.	.	.	.	.	.	16a/	.	.	.	.	.	.	.	.	.	16aa\	.	16aa\	.
.	.	8e\L	.	8gL 8B/	.	.	.	.	.	.	.	.	16g/	.	.	.	.	.	.	.	.	.	16gg\	.	16gg\	.
.	.	.	.	.	.	.	.	.	.	.	.	.	16f#/JJ)	.	.	.	.	.	.	.	.	.	16ff#\JJ)	.	16ff#\JJ	.
4r	.	8e\	.	8g 8B/	.	4r	.	.	.	.	.	.	8e/L	.	.	4r	.	4r	.	.	.	.	8ee\L	.	8ee\L)	.
.	.	8e\J	.	8gJ 8B/	.	.	.	.	.	.	.	.	8e/|	.	.	.	.	.	.	.	.	.	8ee'\	.	8ee'\	.
!	!LO:DY:b	!	!	!	!	!	!	!	!	!	!	!	!	!	!	!	!	!	!LO:DY:b	!	!	!	!	!	!	!
4C#X/	sf	8r	.	8r	.	(>8.bb\L	.	.	.	.	.	.	(>8.b/	.	.	4c#X\	.	4dd 4b\	sf	.	.	.	(>8.bb\	.	(>8.bb\	.
!	!	!	!	!	!LO:DY:b	!	!	!	!	!	!	!	!	!	!	!	!	!	!	!	!	!	!	!	!	!
.	.	8e\	.	8g 8A/	sf	.	.	.	.	.	.	.	.	.	.	.	.	.	.	.	.	.	.	.	.	.
.	.	.	.	.	.	16aa\Jk)	.	.	.	.	.	.	16a/Jk)	.	.	.	.	.	.	.	.	.	16aa\Jk)	.	16aa\Jk)	.
*	*	*	*	*	*	*	*	*	*	*	*	*	*	*	*	*	*	*	*	*v	*v	*	*	*	*	*
!!LO:PB:g=original
=12	=12	=12	=12	=12	=12	=12	=12	=12	=12	=12	=12	=12	=12	=12	=12	=12	=12	=12	=12	=12	=12	=12	=12	=12	=12
*	*	*	*	*	*	*	*	*	*	*	*	*	*	*	*	*	*	*^	*	*	*	*	*	*	*
8D/	.	8r	.	8r	.	16ff#'\LL	.	2.ryy	2.r	.	2.r	.	16f#'</LL	2.rf	.	4d\	.	4cc#X/	4a\	.	4r	.	16ff#'\LL	.	16ff#'\LL	.
.	.	.	.	.	.	(>16aa\	.	.	.	.	.	.	(<16a/	.	.	.	.	.	.	.	.	.	(>16aa\	.	(>16aa\	.
8r	.	8d\	.	8f# 8A/	.	16gg#X\	.	.	.	.	.	.	16g#X/	.	.	.	.	.	.	.	.	.	16gg#X\	.	16gg#X\	.
.	.	.	.	.	.	16aa\JJ)	.	.	.	.	.	.	16a/JJ)	.	.	.	.	.	.	.	.	.	16aa\JJ)	.	16aa\JJ)	.
8AA/	.	8r	.	8r	.	16ee'\LL	.	.	.	.	.	.	16e'</LL	.	.	4A\	.	4dd/	4g#X\	.	4r	.	16ee'\LL	.	16ee'\LL	.
.	.	.	.	.	.	(>16aa\	.	.	.	.	.	.	(<16a/	.	.	.	.	.	.	.	.	.	(>16aa\	.	(>16aa\	.
8r	.	8e 8c#X\	.	8g 8A/	.	16gg#X\	.	.	.	.	.	.	16g#/	.	.	.	.	.	.	.	.	.	16gg#X\	.	16gg#X\	.
.	.	.	.	.	.	16aa\JJ)	.	.	.	.	.	.	16a/JJ)	.	.	.	.	.	.	.	.	.	16aa\JJ)	.	16aa\JJ)	.
8D/	.	8d\	.	8f# 8A/	.	16dd\LL	.	.	.	.	.	.	8d/	.	.	8D\	.	8cc#/	8a\	.	16r	.	16dd\	.	16dd'\	.
!	!	!	!	!	!	!	!	!	!	!	!	!	!	!	!	!	!	!	!	!	!LO:TX:a:i:t=due	!	!	!	!	!
.	.	.	.	.	.	(>32dd\L	.	.	.	.	.	.	.	.	.	.	.	.	.	.	(32d/LLL	.	(>32dd\LLL	.	(>32dd\LLL	.
.	.	.	.	.	.	32ee\	.	.	.	.	.	.	.	.	.	.	.	.	.	.	32e/	.	32ee\	.	32ee\	.
8r	.	8r	.	8r	.	32ff#\	.	.	.	.	.	.	8r	.	.	8r	.	8r	8ryy	.	32f#/	.	32ff#\	.	32ff#\	.
.	.	.	.	.	.	32gg#\	.	.	.	.	.	.	.	.	.	.	.	.	.	.	32g/	.	32gg#\	.	32gg#\	.
.	.	.	.	.	.	32aa\	.	.	.	.	.	.	.	.	.	.	.	.	.	.	32a/	.	32aa\	.	32aa\	.
!	!LO:DY:b	!	!LO:DY:b	!	!	!	!LO:DY:b	!	!	!	!	!	!	!	!	!	!	!	!	!	!	!	!	!	!	!
.	f	.	f	.	.	32aa#X\JJJ)	f	.	.	.	.	.	.	.	.	.	.	.	.	.	32a#X/JJJ)	.	32aa#X\JJJ)	.	32aa#X\JJJ)	.
*	*	*	*	*	*	*	*	*	*	*	*	*	*v	*v	*	*	*	*v	*v	*	*	*	*	*	*	*
=13	=13	=13	=13	=13	=13	=13	=13	=13	=13	=13	=13	=13	=13	=13	=13	=13	=13	=13	=13	=13	=13	=13	=13	=13
*	*	*	*	*	*	*	*	*	*	*	*^	*	*	*	*	*	*	*	*	*	*	*	*	*
!LO:TX:t=P:problem=mixed beam	!	!	!	!	!	!	!	!	!	!	!	!	!	!LO:TX:b:i:t=due	!LO:DY:b:rj	!	!	!	!	!	!	!	!	!	!
!	!	!	!	!	!	!	!	!	!	!LO:DY:b:rj	!	!	!	!	!	!	!	!	!	!	!	!	!	!	!
8GG/L	.	16B\LL	.	(<16bLL 16d 16G/	.	(>16bb\LL	.	2.ryy	4.G\	f	8G/L	4C\	.	(<16b/LL	f	16B\LL	.	4.a 4.d/	.	16b/LL	.	(>16bb\LL	.	(>16bb\LL	.
.	.	16d\	.	16cc/	.	16ccc\	.	.	.	.	.	.	.	16cc/	.	16d\	.	.	.	16cc/	.	16bb\	.	16bb\	.
!	!	!	!	!	!	!	!	!	!	!	!LO:TX:a:t=P:problem=cztery trzydziestodwójki zapisane jako ósemka z trzema belkami	!	!	!	!	!	!	!	!	!	!	!	!	!	!
8G\J	.	16g\	.	16b/	.	16bb\	.	.	.	.	32G/LL	.	.	16b/	.	16g\	.	.	.	16b/	.	16bb\	.	16bb\	.
.	.	.	.	.	.	.	.	.	.	.	32G/	.	.	.	.	.	.	.	.	.	.	.	.	.	.
.	.	16d\JJ	.	16a/JJ)	.	16aa\JJ	.	.	.	.	32G/	.	.	16a/JJ)	.	16d\JJ	.	.	.	16a/JJ	.	16aa\JJ)	.	16aa\JJ	.
.	.	.	.	.	.	.	.	.	.	.	32G/JJ	.	.	.	.	.	.	.	.	.	.	.	.	.	.
8G\L	.	16B\LL	.	8g/L	.	8gg\L)	.	.	.	.	8G/J	4rFF	.	8g'/L	.	16B\LL	.	.	.	8g/L	.	8gg\	.	8gg\L)	.
.	.	16d\	.	.	.	.	.	.	.	.	.	.	.	.	.	16d\	.	.	.	.	.	.	.	.	.
8D\	.	16A\	.	8f#/	.	8ff#'\	.	.	8D\L	.	8rA	.	.	8f#'/	.	16A\	.	8aL 8d\	.	8f#/	.	8r	.	8ff#'\	.
.	.	16d\JJ	.	.	.	.	.	.	.	.	.	.	.	.	.	16d\JJ	.	.	.	.	.	.	.	.	.
8G\	.	16B\LL	.	8g/	.	8gg'\	.	.	8G\	.	4rA	4rFF	.	8g'/	.	16B\LL	.	8a 8d\	.	8g/	.	4r	.	8gg'\	.
.	.	16d\	.	.	.	.	.	.	.	.	.	.	.	.	.	16d\	.	.	.	.	.	.	.	.	.
8G\J	.	16G\	.	8b/J	.	8bb'\J	.	.	8G\J	.	.	.	.	8b'/J	.	16G\	.	8aJ 8d\	.	8b/J	.	.	.	8bb'\J	.
.	.	16d\JJ	.	.	.	.	.	.	.	.	.	.	.	.	.	16d\JJ	.	.	.	.	.	.	.	.	.
=14	=14	=14	=14	=14	=14	=14	=14	=14	=14	=14	=14	=14	=14	=14	=14	=14	=14	=14	=14	=14	=14	=14	=14	=14	=14
*tremolo	*	*	*	*	*	*	*	*	*	*	*	*	*	*	*	*	*	*	*	*	*	*	*	*	*
8F#\L	.	16A/LL	.	16dd\LL	.	(>16ddd\LL	.	2.ryy	4.F#\	.	8G/L	4C\	.	16dd\LL	.	16A\LL	.	4.a 4.c#X\	.	(>16dd\LL	.	4r	.	(>16ddd\LL	.
.	.	16c/	.	16ee\	.	16eee\	.	.	.	.	.	.	.	16ee\	.	16c\	.	.	.	16ee\	.	.	.	16eee\	.
!	!	!	!	!	!	!	!	!	!	!	!LO:TX:a:t=P:problem=cztery trzydziestodwójki zapisane jako ósemka z trzema belkami	!	!	!	!	!	!	!	!	!	!	!	!	!	!
8F#\	.	16d/	.	16dd\	.	16ddd\	.	.	.	.	32G/LL	.	.	16dd\	.	16d\	.	.	.	16dd\	.	.	.	16ddd\	.
.	.	.	.	.	.	.	.	.	.	.	32G/	.	.	.	.	.	.	.	.	.	.	.	.	.	.
.	.	16c/JJ	.	16cc\JJ	.	16ccc\JJ	.	.	.	.	32G/	.	.	16cc\JJ	.	16c\JJ	.	.	.	16cc\JJ	.	.	.	16ccc\JJ	.
.	.	.	.	.	.	.	.	.	.	.	32G/JJ	.	.	.	.	.	.	.	.	.	.	.	.	.	.
*	*	*rep	*	*	*	*	*	*	*	*	*	*	*	*	*	*rep	*	*	*	*	*	*	*	*	*
8F#\	.	16A/LL	.	4.a\	.	4.aa\)	.	.	.	.	8G/J	4rFF	.	4.a/	.	16A\LL	.	.	.	4.a/)	.	4r	.	4.aa\)	.
.	.	16c/	.	.	.	.	.	.	.	.	.	.	.	.	.	16c\	.	.	.	.	.	.	.	.	.
8F#\	.	16d/	.	.	.	.	.	.	8F#\L	.	8rA	.	.	.	.	16d\	.	8aL 8c#\	.	.	.	.	.	.	.
.	.	16c/JJ	.	.	.	.	.	.	.	.	.	.	.	.	.	16c\JJ	.	.	.	.	.	.	.	.	.
*	*	*Xrep	*	*	*	*	*	*	*	*	*	*	*	*	*	*Xrep	*	*	*	*	*	*	*	*	*
8F#\	.	16A/LL	.	.	.	.	.	.	8F#\	.	4rA	4rFF	.	.	.	16A\LL	.	8a 8c#\	.	.	.	8r	.	.	.
.	.	16c/	.	.	.	.	.	.	.	.	.	.	.	.	.	16c\	.	.	.	.	.	.	.	.	.
8F#\J	.	16d/	.	8cc\	.	(>8ccc\|	.	.	8F#\J	.	.	.	.	8r	.	16d\	.	8aJ 8c#\	.	8cc\	.	(>8ccc\	.	(>8ccc\	.
.	.	16a/JJ	.	.	.	.	.	.	.	.	.	.	.	.	.	16c\JJ	.	.	.	.	.	.	.	.	.
=15	=15	=15	=15	=15	=15	=15	=15	=15	=15	=15	=15	=15	=15	=15	=15	=15	=15	=15	=15	=15	=15	=15	=15	=15	=15
*	*	*	*	*	*	*	*	*	*	*	*	*	*	*	*	*	*	*^	*	*	*	*	*	*	*
*	*	*tremolo	*	*tremolo	*	*	*	*	*	*	*	*	*	*	*	*	*	*	*	*	*	*	*	*	*	*
8G\L	.	16g\LL	.	16gLL 16B/	.	16bb\)	.	2.ryy	4G\	.	8G/L	4C\	.	8r	.	2B\	.	2a 2d/	2ryy	.	16b\	.	16bb\)|	.	16bb\)	.
.	.	16g\	.	16g 16B/	.	16r	.	.	.	.	.	.	.	.	.	.	.	.	.	.	16r	.	16r	.	16r	.
!	!	!	!	!	!	!	!	!	!	!	!LO:TX:a:t=P:problem=dwie szesnastki zapisane jako ósemka z dwiema belkami	!	!	!	!	!	!	!	!	!	!	!	!	!	!	!
8G\	.	16g\	.	16g 16B/	.	(>16bb\LL	.	.	.	.	16G/L	.	.	8ryy	.	.	.	.	.	.	(>16b/LL	.	(>16bb\LL	.	(>16bb\LL	.
.	.	16g\	.	16g 16B/	.	16aa\JJ	.	.	.	.	16G/J	.	.	.	.	.	.	.	.	.	16a/JJ	.	16aa\JJ	.	16aa\JJ	.
8G\	.	16g\	.	16g 16B/	.	16gg\LL	.	.	4G\	.	8G/J	4r	.	16g/LL	.	.	.	.	.	.	16g/LL	.	16gg\LL	.	16gg\LL	.
.	.	16g\	.	16g 16B/	.	16ff#\	.	.	.	.	.	.	.	16g/J	.	.	.	.	.	.	16f#/	.	16ff#\	.	16ff#\	.
8G\J	.	16g\	.	16g 16B/	.	16ee\	.	.	.	.	8r	.	.	8g/J	.	.	.	.	.	.	16e/	.	16ee\	.	16ee\	.
.	.	16g\JJ	.	16gJJ 16B/	.	16dd\JJ	.	.	.	.	.	.	.	.	.	.	.	.	.	.	16d/JJ	.	16dd\JJ)	.	16dd\JJ)	.
*Xtremolo	*	*	*	*	*	*	*	*	*	*	*	*	*	*	*	*	*	*	*	*	*	*	*	*	*	*
8C/L	.	16a\LL	.	16eLL 16c/	.	16dd#X\LL)	.	.	4C/	.	4GT/	4C\	.	4a/	.	4A\	.	4b/	4g\	.	16d#X/LL	.	(>16dd#X\LL	.	(>16dd#X\LL	.
.	.	16a\	.	16e 16c/	.	(>16ee\	.	.	.	.	.	.	.	.	.	.	.	.	.	.	16e/	.	16ee\	.	16ee\	.
8C/J	.	16a\	.	16e 16c/	.	16cc\	.	.	.	.	.	.	.	.	.	.	.	.	.	.	16cc/	.	16ccc\	.	16ccc\	.
.	.	16a\JJ	.	16eJJ 16c/	.	16a\JJ)	.	.	.	.	.	.	.	.	.	.	.	.	.	.	16a/JJ)	.	16aa\JJ)	.	16aa\JJ)	.
*	*	*Xtremolo	*	*Xtremolo	*	*	*	*	*	*	*	*	*	*	*	*	*	*	*	*	*	*	*	*	*	*
!!LO:PB:g=original
=16	=16	=16	=16	=16	=16	=16	=16	=16	=16	=16	=16	=16	=16	=16	=16	=16	=16	=16	=16	=16	=16	=16	=16	=16	=16	=16
*	*	*	*	*	*	*	*	*	*	*	*	*	*	*	*	*	*	*	*	*	*^	*	*	*	*	*
8D\L	.	8g\L	.	8dL 8B/	.	(<16g/LL	.	2.ryy	8D\L	.	4G/	4C\	.	8g'/L	.	8B\L	.	8aL 8d/	4ryy	.	16g/LL	4ryy	.	(>16gg\LL	.	(>16gg\LL	.
.	.	.	.	.	.	16d/	.	.	.	.	.	.	.	.	.	.	.	.	.	.	16d/	.	.	16dd\	.	16dd\	.
8D\J	.	8d\J	.	8eJ 8c/	.	16b/)	.	.	8D\J	.	.	.	.	8f#'/J	.	8A\J	.	8aJ 8g/	.	.	16b/	.	.	16bb\)	.	16bb\)	.
.	.	.	.	.	.	32r	.	.	.	.	.	.	.	.	.	.	.	.	.	.	32r	.	.	32r	.	32r	.
!	!	!	!	!	!	!	!	!	!	!	!	!	!	!	!	!	!	!	!	!	!	!	!	!	!	!LO:N:vis=16	!
.	.	.	.	.	.	32f#/JJk|	.	.	.	.	.	.	.	.	.	.	.	.	.	.	32f#/JJk	.	.	32ff#\JJk|	.	32ff#\JJk|	.
8r	.	(>4d\	.	4f# 4c/	.	(<4a/	.	.	8r	.	8r	8r	.	(>4a (<4f#/	.	4A\	.	4a/	4g\	.	4a/	4f#\	.	(>4aa\	.	(>4aa\	.
!	!	!	!	!	!	!	!	!	!	!	!LO:TX:a:t=P:problem=cztery trzydziestodwójki zapisane jako ósemka z trzema belkami	!	!	!	!	!	!	!	!	!	!	!	!	!	!	!	!
8D\L	.	.	.	.	.	.	.	.	8D\L	.	32G/LLL	8C\L	.	.	.	.	.	.	.	.	.	.	.	.	.	.	.
.	.	.	.	.	.	.	.	.	.	.	32G/	.	.	.	.	.	.	.	.	.	.	.	.	.	.	.	.
.	.	.	.	.	.	.	.	.	.	.	32G/	.	.	.	.	.	.	.	.	.	.	.	.	.	.	.	.
.	.	.	.	.	.	.	.	.	.	.	32G/JJ	.	.	.	.	.	.	.	.	.	.	.	.	.	.	.	.
8G\J	.	8G/)	.	8g 8B/	.	8g/)	.	.	8G\J	.	8G/J	8C\J	.	8g/))	.	8B\	.	8a 8d/	4ryy	.	8g/	8g\	.	8gg\)	.	8gg\)	.
8ryy	.	8r	.	8r	.	8r	.	.	8r	.	8r	8ryy	.	8r	.	8r	.	8r	.	.	8r	8ryy	.	8r	.	8r	.
*	*	*	*	*	*	*	*	*	*	*	*v	*v	*	*	*	*	*	*	*	*	*	*	*	*	*	*	*
=17:|!	=17:|!	=17:|!	=17:|!	=17:|!	=17:|!	=17:|!	=17:|!	=17:|!	=17:|!	=17:|!	=17:|!	=17:|!	=17:|!	=17:|!	=17:|!	=17:|!	=17:|!	=17:|!	=17:|!	=17:|!	=17:|!	=17:|!	=17:|!	=17:|!	=17:|!	=17:|!
*>C	*	*>C	*	*>C	*	*>C	*	*>C	*>C	*	*>C	*	*>C	*	*>C	*	*>C	*>C	*	*>C	*>C	*	*>C	*	*>C	*
*tremolo	*	*tremolo	*	*	*	*	*	*	*	*	*	*	*	*	*tremolo	*	*	*	*	*	*	*	*	*	*	*
!	!	!LO:TX:t=P:problem=mixed beam	!	!	!	!	!	!	!	!	!	!	!	!	!	!	!	!	!	!	!	!	!	!	!	!
!	!	!	!	!	!	!	!LO:DY:b	!	!	!	!	!	!	!	!	!	!	!	!LO:DY:b	!	!	!	!	!	!	!
8D\L	.	8D/L	.	(<16d/LL	.	(>16f#/LL	mf	2.ryy	2.r	.	2.r	.	(>16f#LL 16d/	.	8D\L	.	4.a/	4.a\	mf	(>16dd/LL	2.rf	.	(>16ff#\LL	.	2.r	.
.	.	.	.	16e/	.	16g/	.	.	.	.	.	.	16g 16e/	.	.	.	.	.	.	16ee/	.	.	16gg\	.	.	.
8d\	.	8d\	.	16f#/	.	16a/	.	.	.	.	.	.	16a 16f#/	.	8d\	.	.	.	.	16ff#/	.	.	16aa\	.	.	.
.	.	.	.	16g/JJ	.	16b/JJ	.	.	.	.	.	.	16bJJ 16g/	.	.	.	.	.	.	16gg/JJ	.	.	16bb\JJ	.	.	.
8D\	.	8D/	.	8a/L)	.	8cc/L)	.	.	.	.	.	.	8ccL 8a/)	.	8D\	.	.	.	.	8aa/L)	.	.	8ccc\L)	.	.	.
8d\	.	8d\	.	8g#X'/	.	8b'>/	.	.	.	.	.	.	8b 8g#X'>/	.	8d\	.	4.ryy	8a\L	.	8gg#X'>/	.	.	8bb'\	.	.	.
.	.	.	.	(>8qb\	.	(>8qdd\	.	.	.	.	.	.	(>8qb/	.	.	.	.	.	.	(<8qbb/	.	.	(<8qddd/	.	.	.
8D\	.	8D/	.	8a/)	.	8cc/)	.	.	.	.	.	.	8cc 8a/)	.	8D\	.	.	8a\	.	8aa/)	.	.	8ccc\)	.	.	.
8d\J	.	8d\J	.	8f#'>/J	.	8a'>/J	.	.	.	.	.	.	8aJ 8f#'>/	.	8d\J	.	.	8a\J	.	8ff#'</J	.	.	8aa'\J	.	.	.
*Xtremolo	*	*	*	*	*	*	*	*	*	*	*	*	*	*	*Xtremolo	*	*	*	*	*	*	*	*	*	*	*
=18	=18	=18	=18	=18	=18	=18	=18	=18	=18	=18	=18	=18	=18	=18	=18	=18	=18	=18	=18	=18	=18	=18	=18	=18	=18	=18
4G\	.	8G/L	.	8g/L	.	16b\LL|	.	2.ryy	2.r	.	2.r	.	2.r	.	2.B\	.	2.a/	2.a 2.d\	.	16gg/LL|>	2.rf	.	4r	.	16b'\LL	.
.	.	.	.	.	.	(16cc#X\	.	.	.	.	.	.	.	.	.	.	.	.	.	(>16cc#X/	.	.	.	.	(>16cc#X\	.
.	.	8d 8G/	.	8g 8B/	.	16dd\)	.	.	.	.	.	.	.	.	.	.	.	.	.	16dd/)	.	.	.	.	16dd\)	.
.	.	.	.	.	.	(16ff#\JJ	.	.	.	.	.	.	.	.	.	.	.	.	.	(>16gg/JJ	.	.	.	.	(>16ff#\JJ	.
4r	.	8d 8G/	.	8g 8B/	.	4.gg\)	.	.	.	.	.	.	.	.	.	.	.	.	.	4.bb/)	.	.	4r	.	4.gg\)	.
.	.	8dJ 8G/	.	8gJ 8B/	.	.	.	.	.	.	.	.	.	.	.	.	.	.	.	.	.	.	.	.	.	.
4G\	.	8r	.	8r	.	.	.	.	.	.	.	.	.	.	.	.	.	.	.	.	.	.	8r	.	.	.
.	.	8d 8G/	.	8g 8B/	.	(>8bb\|	.	.	.	.	.	.	.	.	.	.	.	.	.	8r	.	.	(>8bb\|	.	(>8bb'\	.
*	*	*	*	*	*	*	*	*	*	*	*	*	*	*	*	*	*	*	*	*v	*v	*	*	*	*	*
=19	=19	=19	=19	=19	=19	=19	=19	=19	=19	=19	=19	=19	=19	=19	=19	=19	=19	=19	=19	=19	=19	=19	=19	=19	=19
!	!	!	!	!	!	!	!	!	!	!	!	!LO:DY:b	!	!	!	!	!	!	!	!	!	!	!	!	!
.	.	.	.	.	.	.	.	.	.	.	16qqG/LL	f	.	.	.	.	.	.	.	.	.	.	.	.	.
.	.	.	.	.	.	.	.	.	.	.	16qqG/JJ	.	.	.	.	.	.	.	.	.	.	.	.	.	.
*	*	*	*	*	*	*	*	*	*	*	*^	*	*	*	*	*	*	*	*	*	*	*	*	*	*
!	!	!	!	!	!	!	!	!	!	!	!	!	!	!	!	!	!	!	!	!LO:DY:b	!	!	!	!	!	!
8F#\	.	8r	.	8r	.	8aa\L)	.	2.ryy	4F#\	.	4G/	4C\	.	2.r	.	2.A\	.	2.a/	2.g\	f	2.r	.	8aa\L)	.	8aa\L)	.
8r	.	8d\	.	8a 8c/	.	(>16cccn\L	.	.	.	.	.	.	.	.	.	.	.	.	.	.	.	.	(>16cccn\L	.	(>16cccn\L	.
.	.	.	.	.	.	16bb\JJ	.	.	.	.	.	.	.	.	.	.	.	.	.	.	.	.	16bb\JJ	.	16bb\JJ	.
*	*	*rep	*	*rep	*	*	*	*	*	*	*	*	*	*	*	*	*	*	*	*	*	*	*	*	*	*
8D\	.	8r	.	8r	.	16aa\LL	.	.	4D\	.	2r	4ryy	.	.	.	.	.	.	.	.	.	.	16aa\LL	.	16aa\LL	.
.	.	.	.	.	.	16gg\	.	.	.	.	.	.	.	.	.	.	.	.	.	.	.	.	16gg\	.	16gg\	.
8r	.	8d\	.	8a 8c/	.	16ff#\	.	.	.	.	.	.	.	.	.	.	.	.	.	.	.	.	16ff#\	.	16ff#\	.
.	.	.	.	.	.	16ee\JJ	.	.	.	.	.	.	.	.	.	.	.	.	.	.	.	.	16ee\JJ	.	16ee\JJ	.
*	*	*Xrep	*	*Xrep	*	*	*	*	*	*	*	*	*	*	*	*	*	*	*	*	*	*	*	*	*	*
*	*	*rep	*	*rep	*	*	*	*	*	*	*	*	*	*	*	*	*	*	*	*	*	*	*	*	*	*
8F#\	.	8r	.	8r	.	16dd\LL	.	.	4F#\	.	.	4ryy	.	.	.	.	.	.	.	.	.	.	16dd\LL	.	16dd\LL	.
.	.	.	.	.	.	16cc\	.	.	.	.	.	.	.	.	.	.	.	.	.	.	.	.	16cc\	.	16cc\	.
8r	.	8d\	.	8a 8c/	.	16b\	.	.	.	.	.	.	.	.	.	.	.	.	.	.	.	.	16b\	.	16b\	.
.	.	.	.	.	.	16a\JJ)	.	.	.	.	.	.	.	.	.	.	.	.	.	.	.	.	16a\JJ)	.	16a\JJ)	.
*	*	*Xrep	*	*Xrep	*	*	*	*	*	*	*	*	*	*	*	*	*	*	*	*	*	*	*	*	*	*
!!LO:PB:g=original
=20	=20	=20	=20	=20	=20	=20	=20	=20	=20	=20	=20	=20	=20	=20	=20	=20	=20	=20	=20	=20	=20	=20	=20	=20	=20	=20
*	*	*	*	*	*	*	*	*	*	*	*	*	*	*^	*	*	*	*	*	*	*^	*	*	*	*	*
!	!	!	!	!	!	!	!	!	!	!	!	!	!	!	!	!	!	!	!	!	!LO:HP:b	!	!	!	!	!	!	!
4.G\	.	8r	.	8r	.	(<4a#X/^>	.	2.ryy	4.G\	.	8r	4.C\	.	4r	2.rf	.	[>4G\	.	4b/	4g#X\	>	4r	4ryy	.	(>4a#X/	.	(>4a/^<	.
!	!	!	!	!	!	!	!	!	!	!	!LO:TX:a:t=P:problem=cztery trzydziestodwójki zapisane jako ósemka z trzema belkami	!	!	!	!	!	!	!	!	!	!	!	!	!	!	!	!	!
.	.	8eL 8c#X\^>	.	(<8gL 8A#X^>/	.	.	.	.	.	.	32G/LLL	.	.	.	.	.	.	.	.	.	.	.	.	.	.	.	.	.
.	.	.	.	.	.	.	.	.	.	.	32G/	.	.	.	.	.	.	.	.	.	.	.	.	.	.	.	.	.
.	.	.	.	.	.	.	.	.	.	.	32G/	.	.	.	.	.	.	.	.	.	.	.	.	.	.	.	.	.
.	.	.	.	.	.	.	.	.	.	.	32G/JJ	.	.	.	.	.	.	.	.	.	.	.	.	.	.	.	.	.
.	.	8d\J	.	8gJ 8B/)	.	8b/)	.	.	.	.	8G/J	.	.	8.r	.	.	8G\]	.	8a/	8a\	]	8.r	8.ryy	.	8b/)	.	8b/)	.
8r	.	8d\	.	8g 8B/	.	16r	.	.	8r	.	8r	8ryy	.	.	.	.	8r	.	8r	8ryy	.	.	.	.	16r	.	8r	.
!	!	!	!	!	!	!	!	!	!	!	!	!	!	!LO:TX:a:i:t=Io.	!	!	!	!	!	!	!	!	!	!	!	!	!	!
.	.	.	.	.	.	16dd\	.	.	.	.	.	.	.	16d/	.	.	.	.	.	.	.	16d/	16d\	.	16dd\	.	.	.
!	!LO:DY:b:rj	!	!	!	!	!	!	!	!	!	!	!	!	!	!	!	!	!	!	!	!	!	!	!	!	!	!	!
8G\	p	8r	.	8r	.	4ddT\	.	.	4r	.	4r	4ryy	.	4d/	.	.	4r	.	4r	4ryy	.	4dT/	(<4d\	.	4ddT\	.	4r	.
!	!	!	!	!	!LO:DY:b:rj	!	!	!	!	!	!	!	!	!	!	!	!	!	!	!	!	!	!	!	!	!	!	!
8r	.	8d\	.	8g 8B/	p	.	.	.	.	.	.	.	.	.	.	.	.	.	.	.	.	.	.	.	.	.	.	.
*	*	*	*	*	*	*	*	*	*	*	*v	*v	*	*	*	*	*	*	*v	*v	*	*	*	*	*	*	*	*
.	.	.	.	.	.	16qqcc#X/LL	.	.	.	.	.	.	.	.	.	.	.	.	.	16qqc#X/LL	.	.	(>16qqcc#X/LL	.	.	.
.	.	.	.	.	.	16qqdd/JJ	.	.	.	.	.	.	.	.	.	.	.	.	.	16qqd/JJ)	.	.	16qqdd/JJ)	.	.	.
=21	=21	=21	=21	=21	=21	=21	=21	=21	=21	=21	=21	=21	=21	=21	=21	=21	=21	=21	=21	=21	=21	=21	=21	=21	=21	=21
!	!LO:DY:b	!	!	!	!	!	!	!	!	!	!	!	!	!	!	!	!	!	!	!	!	!	!	!	!	!
2.BB-X/	sfp	8r	.	8r	.	8gg'\L	.	2.ryy	2.r	.	2.r	.	8g/L	2.rf	.	4r	.	2.r	.	8g/L	8g\L	.	8gg'\L	.	2.r	.
!	!	!	!	!	!LO:DY:b	!	!	!	!	!	!	!	!	!	!	!	!	!	!	!	!	!	!	!	!	!
.	.	8d\	.	8g 8G/	sfp	8aa'\J	.	.	.	.	.	.	8a/J	.	.	.	.	.	.	8a/J	8a\J	.	8aa'\J	.	.	.
*	*	*	*	*tremolo	*	*	*	*	*	*	*	*	*	*	*	*	*	*	*	*	*	*	*	*	*	*
!	!	!	!	!	!	!LO:N:vis=4	!	!	!	!	!	!	!	!	!	!	!	!	!	!	!	!	!	!	!	!
.	.	8d\L	.	8gL 8G/	.	4.bb-X'\	.	.	.	.	.	.	4.b-X/	.	.	4r	.	.	.	4.b-X/	4.b-\	.	4.bb-X'\	.	.	.
.	.	8d\	.	8g 8G/	.	.	.	.	.	.	.	.	.	.	.	.	.	.	.	.	.	.	.	.	.	.
.	.	8d\	.	8g 8G/	.	.	.	.	.	.	.	.	.	.	.	8r	.	.	.	.	.	.	.	.	.	.
.	.	8d\J	.	8gJ 8G/	.	8dd\	.	.	.	.	.	.	8r	.	.	8d\	.	.	.	8r	8ryy	.	8dd\	.	.	.
*	*	*	*	*	*	*	*	*	*	*	*	*	*v	*v	*	*	*	*	*	*v	*v	*	*	*	*	*
=22	=22	=22	=22	=22	=22	=22	=22	=22	=22	=22	=22	=22	=22	=22	=22	=22	=22	=22	=22	=22	=22	=22	=22	=22
4AA/	.	8r	.	8r	.	8cc#X'\L	.	2.ryy	2.r	.	2.r	.	2.r	.	8c#X'\L	.	2.r	.	4r	.	8cc#X'\L	.	4r	.
.	.	8e 8c#X\	.	8g 8A/	.	8ee'\J	.	.	.	.	.	.	.	.	8e'\J	.	.	.	.	.	8ee'\J	.	.	.
4r	.	8eL 8c#\	.	8gL 8A/	.	4.a'/	.	.	.	.	.	.	.	.	4.A'\	.	.	.	4r	.	4.a'/	.	4r	.
.	.	8e 8c#\	.	8g 8A/	.	.	.	.	.	.	.	.	.	.	.	.	.	.	.	.	.	.	.	.
4r	.	8e 8c#\	.	8g 8A/	.	.	.	.	.	.	.	.	.	.	.	.	.	.	8r	.	.	.	8r	.
!	!LO:DY:b	!	!	!	!LO:DY:b	!	!	!	!	!	!	!	!	!LO:DY:b	!	!	!	!	!	!	!	!	!	!
.	f	8eJ 8c#\	.	8gJ 8A/	f	8ee\	.	.	.	.	.	.	.	f	8r	.	.	.	8e/|>	.	8r	.	8ee\|	.
*	*	*Xtremolo	*	*Xtremolo	*	*	*	*	*	*	*	*	*	*	*	*	*	*	*	*	*	*	*	*
=23	=23	=23	=23	=23	=23	=23	=23	=23	=23	=23	=23	=23	=23	=23	=23	=23	=23	=23	=23	=23	=23	=23	=23	=23
.	.	.	.	.	.	.	.	.	.	.	32qqG/LLL	.	.	.	.	.	.	.	.	.	.	.	.	.
.	.	.	.	.	.	.	.	.	.	.	32qqG/JJJ	.	.	.	.	.	.	.	.	.	.	.	.	.
*	*	*	*	*	*	*	*	*	*	*	*^	*	*	*	*	*	*	*	*^	*	*	*	*	*
!	!	!	!	!	!	!	!	!	!	!	!	!	!	!	!	!	!	!	!LO:DY:b:rj	!	!	!	!	!	!	!
8C#X/	.	8r	.	8r	.	8aa'\L	.	2.ryy	8C#X/	.	8G/	8C\	.	8a 8e/	.	2.c#X\	.	2.dd 2.b\	f	8a/L|>	2.a\	.	2.r	.	8aa\L|	.
8r	.	8e 8A\	.	8g 8A/	.	(>16ggg\L	.	.	8r	.	8rA	8rFF	.	8r	.	.	.	.	.	(>16gg/L	.	.	.	.	(>16ggg\L	.
.	.	.	.	.	.	16fff#\JJ)	.	.	.	.	.	.	.	.	.	.	.	.	.	16ff#/JJ)	.	.	.	.	16fff#\JJ)	.
*	*	*rep	*	*rep	*	*	*	*	*	*	*	*	*	*	*	*	*	*	*	*	*	*	*	*	*	*
8AA/	.	8r	.	8r	.	16eee\LL	.	.	4r	.	4rA	4rFF	.	4r	.	.	.	.	.	16ee/LL	.	.	.	.	16eee\LL	.
.	.	.	.	.	.	16ddd\	.	.	.	.	.	.	.	.	.	.	.	.	.	16dd/	.	.	.	.	16ddd\	.
8r	.	8e 8A\	.	8g 8A/	.	16ccc#X\	.	.	.	.	.	.	.	.	.	.	.	.	.	16cc#X/	.	.	.	.	16ccc#X\	.
.	.	.	.	.	.	16bb\JJ	.	.	.	.	.	.	.	.	.	.	.	.	.	16b/JJ	.	.	.	.	16bb\JJ	.
*	*	*Xrep	*	*Xrep	*	*	*	*	*	*	*	*	*	*	*	*	*	*	*	*	*	*	*	*	*	*
*	*	*rep	*	*rep	*	*	*	*	*	*	*	*	*	*	*	*	*	*	*	*	*	*	*	*	*	*
8C#/	.	8r	.	8r	.	16aa\LL	.	.	4r	.	4rA	4rFF	.	4r	.	.	.	.	.	16a/LL	.	.	.	.	16aa\LL	.
.	.	.	.	.	.	16gg\	.	.	.	.	.	.	.	.	.	.	.	.	.	16g/	.	.	.	.	16gg\	.
8r	.	8e 8A\	.	8g 8A/	.	16ff#\	.	.	.	.	.	.	.	.	.	.	.	.	.	16f#/	.	.	.	.	16ff#\	.
.	.	.	.	.	.	16ee\JJ	.	.	.	.	.	.	.	.	.	.	.	.	.	16e/JJ	.	.	.	.	16ee\JJ	.
*	*	*Xrep	*	*Xrep	*	*	*	*	*	*	*	*	*	*	*	*	*	*	*	*	*	*	*	*	*	*
!!LO:PB:g=original
=24	=24	=24	=24	=24	=24	=24	=24	=24	=24	=24	=24	=24	=24	=24	=24	=24	=24	=24	=24	=24	=24	=24	=24	=24	=24	=24
*	*	*	*	*	*	*	*	*	*	*	*	*	*	*	*	*	*	*^	*	*	*	*	*	*	*	*
2D\	.	(<16d/LL	.	(<16f#/LL	.	4.dd\	.	2.ryy	2D\	.	4rA	4rFF	.	4.d/	.	4d\	.	[>4cc#X/	[>4a\	.	2a/	2f#\	.	4.dd\	.	4.dd\	.
.	.	16A/	.	16a/	.	.	.	.	.	.	.	.	.	.	.	.	.	.	.	.	.	.	.	.	.	.	.
.	.	16d/	.	16f#/	.	.	.	.	.	.	.	.	.	.	.	.	.	.	.	.	.	.	.	.	.	.	.
.	.	16A/JJ)	.	16a/JJ)	.	.	.	.	.	.	.	.	.	.	.	.	.	.	.	.	.	.	.	.	.	.	.
*	*	*rep	*	*rep	*	*	*	*	*	*	*	*	*	*	*	*	*	*	*	*	*	*	*	*	*	*	*
.	.	(<16d/LL	.	(<16f#/LL	.	.	.	.	.	.	4rA	4rFF	.	.	.	2A\	.	4cc#/]	4a\]	.	.	.	.	.	.	.	.
.	.	16A/	.	16a/	.	.	.	.	.	.	.	.	.	.	.	.	.	.	.	.	.	.	.	.	.	.	.
.	.	16d/	.	16f#/	.	(>8aa\	.	.	.	.	.	.	.	(>8a/	.	.	.	.	.	.	.	.	.	(>8aa\	.	(>8aa\	.
.	.	16A/JJ)	.	16a/JJ)	.	.	.	.	.	.	.	.	.	.	.	.	.	.	.	.	.	.	.	.	.	.	.
*	*	*Xrep	*	*Xrep	*	*	*	*	*	*	*	*	*	*	*	*	*	*	*	*	*	*	*	*	*	*	*
!	!	!	!LO:HP:b	!	!	!	!	!	!	!	!	!	!	!	!	!	!	!	!	!	!	!	!	!	!	!	!
4E-X^<\	.	(<16c#X/LL	>	(<16g/LL	.	8a\L)	.	.	4E-X\	.	4GT/	4C\	.	8A/L)	.	.	.	4dd/	4g#X\	.	4a/	4g\	.	8a\L)	.	8a\L)	.
.	.	16A/	.	16a/	.	.	.	.	.	.	.	.	.	.	.	.	.	.	.	.	.	.	.	.	.	.	.
.	.	16c#/	.	16g/	.	8cc#X'\J	.	.	.	.	.	.	.	8c#X/J|>	.	.	.	.	.	.	.	.	.	8cc#X\J|	.	8cc#X'\J	.
.	.	16A/JJ)	]]	16a/JJ)	.	.	.	.	.	.	.	.	.	.	.	.	.	.	.	.	.	.	.	.	.	.	.
=25	=25	=25	=25	=25	=25	=25	=25	=25	=25	=25	=25	=25	=25	=25	=25	=25	=25	=25	=25	=25	=25	=25	=25	=25	=25	=25	=25
*	*	*rep	*	*rep	*	*	*	*	*	*	*	*	*	*	*	*	*	*	*	*	*	*	*	*	*	*	*
2D\	.	(<16d/LL	.	(16f#/LL	.	4.dd\	.	2.ryy	2D\	.	4G/	4C\	.	4.d/	.	[>2.A\	.	2cc#X/	2a\	.	2a/	2f#\	.	4.dd\	.	4.dd\	.
.	.	16A/	.	16a/	.	.	.	.	.	.	.	.	.	.	.	.	.	.	.	.	.	.	.	.	.	.	.
.	.	16d/	.	16f#/	.	.	.	.	.	.	.	.	.	.	.	.	.	.	.	.	.	.	.	.	.	.	.
.	.	16A/JJ)	.	16a/JJ)	.	.	.	.	.	.	.	.	.	.	.	.	.	.	.	.	.	.	.	.	.	.	.
.	.	(<16d/LL	.	(16f#/LL	.	.	.	.	.	.	4r	4r	.	.	.	.	.	.	.	.	.	.	.	.	.	.	.
.	.	16A/	.	16a/	.	.	.	.	.	.	.	.	.	.	.	.	.	.	.	.	.	.	.	.	.	.	.
.	.	.	.	.	.	(<8qbb/	.	.	.	.	.	.	.	(>8qb/	.	.	.	.	.	.	.	.	.	(<8qbb/	.	(<8qbb/	.
.	.	16d/	.	16f#/	.	(>8aa\)	.	.	.	.	.	.	.	8a/)	.	.	.	.	.	.	.	.	.	(>8aa\)	.	(>8aa\)	.
.	.	16A/JJ)	.	16a/JJ)	.	.	.	.	.	.	.	.	.	.	.	.	.	.	.	.	.	.	.	.	.	.	.
!	!	!	!LO:HP:b	!	!	!	!	!	!	!	!	!	!	!	!	!	!	!	!	!	!	!	!	!	!	!	!
4E-X^<\	.	(<16c#X/LL	>	(16g/LL	.	8a\L)	.	.	4E-X\	.	4GT/	4C\	.	8A/L	.	.	.	4dd/	4g#X\	.	4a/	4g\	.	8a\L)	.	8a\L)	.
.	.	16A/	.	16a/	.	.	.	.	.	.	.	.	.	.	.	.	.	.	.	.	.	.	.	.	.	.	.
.	.	16c#/	.	16g/	.	8cc#X'\J	.	.	.	.	.	.	.	8c#X'>/J	.	.	.	.	.	.	.	.	.	8cc#X\J|	.	8cc#X\J	.
.	.	16A/JJ)	]]	16a/JJ)	.	.	.	.	.	.	.	.	.	.	.	.	.	.	.	.	.	.	.	.	.	.	.
*	*	*Xrep	*	*Xrep	*	*	*	*	*	*	*	*	*	*	*	*	*	*	*	*	*	*	*	*	*	*	*
*	*	*	*	*	*	*	*	*	*	*	*	*	*	*	*	*	*	*	*	*	*v	*v	*	*	*	*	*
=26	=26	=26	=26	=26	=26	=26	=26	=26	=26	=26	=26	=26	=26	=26	=26	=26	=26	=26	=26	=26	=26	=26	=26	=26	=26	=26
4D\	.	4d\	.	4f#/	.	(>(>16dd\LL	.	2.ryy	4D\	.	4G/	4C\	.	4d/	.	4A\]	.	4cc#X/	4a\	.	4a 4f#/	.	(>16dd\LL	.	(>16dd\LL	.
!	!	!	!	!	!	!	!	!	!	!	!	!	!	!	!	!	!	!	!	!	!	!	!	!	!	!LO:HP:b
.	.	.	.	.	.	16cc#X\	.	.	.	.	.	.	.	.	.	.	.	.	.	.	.	.	16cc#X\	.	16cc#X\	<
.	.	.	.	.	.	16ee\	.	.	.	.	.	.	.	.	.	.	.	.	.	.	.	.	16ee\	.	16ee\	.
.	.	.	.	.	.	16dd\JJ	.	.	.	.	.	.	.	.	.	.	.	.	.	.	.	.	16dd\JJ	.	16dd\JJ	.
4r	.	4r	.	4r	.	16ff#\LL	.	.	4r	.	4r	4ryy	.	4r	.	4r	.	4r	4ryy	.	4r	.	16ff#\LL	.	16ff#\LL	.
.	.	.	.	.	.	16ee\	.	.	.	.	.	.	.	.	.	.	.	.	.	.	.	.	16ee\	.	16ee\	.
.	.	.	.	.	.	16gg\	.	.	.	.	.	.	.	.	.	.	.	.	.	.	.	.	16gg\	.	16gg\	.
.	.	.	.	.	.	16ff#\JJ)	.	.	.	.	.	.	.	.	.	.	.	.	.	.	.	.	16ff#\JJ	.	16ff#\JJ	.
4r	.	4r	.	4r	.	(>16aa\LL	.	.	4r	.	4r	4ryy	.	4r	.	4r	.	4r	4ryy	.	4r	.	16aa\LL	.	16aa\LL	.
.	.	.	.	.	.	16gg#X\	.	.	.	.	.	.	.	.	.	.	.	.	.	.	.	.	16gg#X\	.	16gg#X\	.
.	.	.	.	.	.	16bb\	.	.	.	.	.	.	.	.	.	.	.	.	.	.	.	.	16bb\	.	16bb\	.
.	.	.	.	.	.	16aa\JJ))	.	.	.	.	.	.	.	.	.	.	.	.	.	.	.	.	16aa\JJ)	.	16aa\JJ)	[[
=27	=27	=27	=27	=27	=27	=27	=27	=27	=27	=27	=27	=27	=27	=27	=27	=27	=27	=27	=27	=27	=27	=27	=27	=27	=27	=27
!	!LO:DY:b	!	!	!	!LO:DY:b:rj	!	!	!	!	!LO:DY:b	!	!	!	!	!LO:DY:b	!	!LO:DY:b	!	!	!	!	!LO:DY:b	!	!	!	!
8d 8D\	sf	8f# 8A 8D/	.	8aa 8cc 8d\	sf	16cccn 16dd 16d\	.	2.ryy	8D\	sf	8G/	8C\	.	8cc 8f#/	sf	8A\	sf	8a/	8g\	.	8ff# 8a\	sf	8ccc\	.	16ccc\	sf
.	.	.	.	.	.	16r	.	.	.	.	.	.	.	.	.	.	.	.	.	.	.	.	.	.	16r	.
!	!	!	!	!	!	!LO:TUP:a	!	!	!	!	!	!	!	!	!	!	!	!	!	!	!	!	!	!	!LO:TUP:a:problem=klamra łukowa	!
8r	.	8r	.	8r	.	(>24ccc\LL	.	.	8r	.	8r	8ryy	.	8r	.	8r	.	8r	8ryy	.	8r	.	8r	.	24ccc\LL	.
.	.	.	.	.	.	24ddd\	.	.	.	.	.	.	.	.	.	.	.	.	.	.	.	.	.	.	24ddd\	.
.	.	.	.	.	.	24ddd#X\JJ	.	.	.	.	.	.	.	.	.	.	.	.	.	.	.	.	.	.	24ddd#X\JJ	.
4r	.	4r	.	4r	.	8eee\L)	.	.	4r	.	4r	4ryy	.	4r	.	4r	.	4r	4ryy	.	4r	.	4r	.	8eee\L	.
!	!	!	!	!	!	!LO:TUP:a	!	!	!	!	!	!	!	!	!	!	!	!	!	!	!	!	!	!	!LO:TUP:a:problem=klamra łukowa	!
.	.	.	.	.	.	(>24aa\L|	.	.	.	.	.	.	.	.	.	.	.	.	.	.	.	.	.	.	24aa\L|	.
.	.	.	.	.	.	24aa#X\	.	.	.	.	.	.	.	.	.	.	.	.	.	.	.	.	.	.	24aa#X\	.
.	.	.	.	.	.	24bb\JJ	.	.	.	.	.	.	.	.	.	.	.	.	.	.	.	.	.	.	24bb\JJ	.
4r	.	4r	.	4r	.	8ccc\L)	.	.	4r	.	4r	4ryy	.	4r	.	4r	.	4r	4ryy	.	4r	.	4r	.	8ccc\L|	.
!	!	!	!	!	!	!LO:TUP:a	!	!	!	!	!	!	!	!	!	!	!	!	!	!	!	!	!	!	!	!
!	!	!	!	!	!	!	!	!	!	!	!	!	!	!	!	!	!	!	!	!	!	!	!	!	!LO:TUP:a:problem=klamra łukowa	!
.	.	.	.	.	.	(>24ff#\L|	.	.	.	.	.	.	.	.	.	.	.	.	.	.	.	.	.	.	24ff#\L|	.
.	.	.	.	.	.	24gg\	.	.	.	.	.	.	.	.	.	.	.	.	.	.	.	.	.	.	24gg\	.
.	.	.	.	.	.	24gg#X\JJ	.	.	.	.	.	.	.	.	.	.	.	.	.	.	.	.	.	.	24gg#X\JJ	.
*	*	*	*	*	*	*	*	*	*	*	*v	*v	*	*	*	*	*	*v	*v	*	*	*	*	*	*	*
!!LO:PB:g=original
=28	=28	=28	=28	=28	=28	=28	=28	=28	=28	=28	=28	=28	=28	=28	=28	=28	=28	=28	=28	=28	=28	=28	=28	=28
2.r	.	2.r	.	2.r	.	8aa\L)	.	2.ryy	2.r	.	2.r	.	4r	.	2.r	.	2.r	.	2.r	.	4r	.	8aa\L	.
!	!	!	!	!	!	!LO:TUP:a	!	!	!	!	!	!	!	!	!	!	!	!	!	!	!	!	!LO:TUP:a:problem=klamra łukowa	!
.	.	.	.	.	.	(>24aa\L	.	.	.	.	.	.	.	.	.	.	.	.	.	.	.	.	24aa\L|	.
.	.	.	.	.	.	24aa#X\	.	.	.	.	.	.	.	.	.	.	.	.	.	.	.	.	24aa#X\	.
.	.	.	.	.	.	24bb\JJ	.	.	.	.	.	.	.	.	.	.	.	.	.	.	.	.	24bb\JJ	.
.	.	.	.	.	.	8ccc\L)	.	.	.	.	.	.	4r	.	.	.	.	.	.	.	4r	.	8ccc\L	.
!	!	!	!	!	!	!LO:TUP:a	!	!	!	!	!	!	!	!	!	!	!	!	!	!	!	!	!LO:TUP:a	!
.	.	.	.	.	.	(>24ff#\L	.	.	.	.	.	.	.	.	.	.	.	.	.	.	.	.	(>24ff#\L	.
.	.	.	.	.	.	24gg\	.	.	.	.	.	.	.	.	.	.	.	.	.	.	.	.	24gg\	.
.	.	.	.	.	.	24gg#X\JJ	.	.	.	.	.	.	.	.	.	.	.	.	.	.	.	.	24gg#X\JJ	.
.	.	.	.	.	.	8aa#\	.	.	.	.	.	.	16r	.	.	.	.	.	.	.	16r	.	16aa#\LL	.
.	.	.	.	.	.	.	.	.	.	.	.	.	16f#/LL|	.	.	.	.	.	.	.	16ff#'\LL	.	16ff#\)	.
.	.	.	.	.	.	8r)	.	.	.	.	.	.	(<16d/	.	.	.	.	.	.	.	(>16dd\	.	(>16dd\	.
.	.	.	.	.	.	.	.	.	.	.	.	.	16ccn/JJ)	.	.	.	.	.	.	.	16cccn\JJ)	.	16cccn\JJ)	.
!	!	!	!	!	!	!LO:TX:t=[segno]	!	!	!	!	!	!	!	!	!	!	!	!	!	!	!	!	!LO:TX:a:t=[segno]	!
!!LO:PB:g=original
=29||	=29||	=29||	=29||	=29||	=29||	=29||	=29||	=29||	=29||	=29||	=29||	=29||	=29||	=29||	=29||	=29||	=29||	=29||	=29||	=29||	=29||	=29||	=29||	=29||
*>D	*	*>D	*	*>D	*	*>D	*	*>D	*>D	*	*>D	*	*>D	*	*>D	*	*>D	*	*>D	*	*>D	*	*>D	*
*k[]	*	*k[]	*	*k[]	*	*k[]	*	*k[]	*k[]	*	*k[]	*	*k[]	*	*k[]	*	*k[f#]	*	*k[]	*	*k[]	*	*k[]	*
*	*	*	*	*	*	*	*	*	*	*	*	*	*	*	*	*	*	*	*	*	*	*	*	*
*M3/4	*	*M3/4	*	*M3/4	*	*M3/4	*	*M3/4	*M3/4	*	*M3/4	*	*M3/4	*	*M3/4	*	*M3/4	*	*M3/4	*	*M3/4	*	*M3/4	*
!	!LO:DY:b:rj	!	!LO:DY:b:rj	!	!	!	!LO:DY:a:rj	!LO:TX:a:i:t=Violino Solo	!	!	!	!	!	!	!	!	!	!	!	!	!	!	!LO:TX:a:i:t=Trio	!
8C/L	p	8c/L	p	8c/L	.	8eL 8G/	p	2.r	2.r	.	2.ryy	.	2.r	.	2.r	.	2.r	.	2.r	.	2.r	.	2.r	.
16C/L	.	16c/L	.	16c/L	.	16eL 16G/	.	.	.	.	.	.	.	.	.	.	.	.	.	.	.	.	.	.
16C/JJ	.	16c/JJ	.	16c/JJ	.	16eJJ 16G/	.	.	.	.	.	.	.	.	.	.	.	.	.	.	.	.	.	.
8C/L	.	8c/L	.	8c/L	.	8eL 8G/	.	.	.	.	.	.	.	.	.	.	.	.	.	.	.	.	.	.
8C/	.	8c/	.	8c/	.	8e 8G/	.	.	.	.	.	.	.	.	.	.	.	.	.	.	.	.	.	.
!	!LO:DY:b	!	!LO:DY:b	!	!LO:DY:b	!	!LO:DY:a	!	!	!	!	!	!	!	!	!	!	!	!	!	!	!	!	!
8GG/	sf	8G/	sf	8d 8B/	sf	8g 8G/	sf	.	.	.	.	.	.	.	.	.	.	.	.	.	.	.	.	.
!	!	!	!	!	!	!	!	!	!	!	!	!	!	!	!	!	!	!LO:DY:b	!	!	!	!	!	!
8GG/J	.	8G/J	.	8dJ 8B/	.	8gJ 8G/	.	.	.	.	.	.	.	.	.	.	.	p	.	.	.	.	.	.
=30	=30	=30	=30	=30	=30	=30	=30	=30	=30	=30	=30	=30	=30	=30	=30	=30	=30	=30	=30	=30	=30	=30	=30	=30
*rep	*	*rep	*	*rep	*	*	*	*	*	*	*	*	*	*	*	*	*	*	*	*	*	*	*	*
!	!LO:DY:b:rj	!	!LO:DY:b:rj	!	!	!	!	!	!	!LO:DY:b:rj	!	!	!	!LO:DY:b:rj	!	!LO:DY:b:rj	!	!	!	!	!	!	!	!
8C/L	p	8c/L	p	8c/L	.	8eL 8G/	.	2.r	8C/L	p	2.ryy	.	8eeL 8cc\	p	8G\L	p	8bL 8g\	.	2.r	.	2.r	.	2.r	.
16C/L	.	16c/L	.	16c/L	.	16eL 16G/	.	.	16C/L	.	.	.	16eeL 16cc\	.	16G\L	.	16bL 16g\	.	.	.	.	.	.	.
16C/JJ	.	16c/JJ	.	16c/JJ	.	16eJJ 16G/	.	.	16C/JJ	.	.	.	16eeJJ 16cc\	.	16G\JJ	.	16bJJ 16g\	.	.	.	.	.	.	.
*	*	*	*	*	*	*	*	*	*tremolo	*	*	*	*tremolo	*	*tremolo	*	*tremolo	*	*	*	*	*	*	*
8C/L	.	8c/L	.	8c/L	.	8eL 8G/	.	.	8C/L	.	.	.	8eeL 8cc\	.	8G\L	.	8bL 8g\	.	.	.	.	.	.	.
8C/	.	8c/	.	8c/	.	8eJ 8G/	.	.	8C/J	.	.	.	8eeJ 8cc\	.	8G\J	.	8bJ 8g\	.	.	.	.	.	.	.
!	!	!	!	!	!LO:DY:b	!	!LO:DY:a	!	!	!LO:DY:b	!	!	!	!LO:DY:b	!	!	!	!LO:DY:b	!	!	!	!	!	!
8GG/	sf	8G/	sf	8d 8B/	sf	8dL 8G/	sf	.	8GG/L	sf	.	.	8ddL 8g/	sf	8B\L	sf	8aL 8d/	sf	.	.	.	.	.	.
8GG/J	.	8G/J	.	8dJ 8B/	.	8dJ 8G/	.	.	8GG/J	.	.	.	8ddJ 8g/	.	8B\J	.	8aJ 8d/	.	.	.	.	.	.	.
*Xrep	*	*Xrep	*	*Xrep	*	*	*	*	*Xtremolo	*	*	*	*Xtremolo	*	*Xtremolo	*	*Xtremolo	*	*	*	*	*	*	*
=31	=31	=31	=31	=31	=31	=31	=31	=31	=31	=31	=31	=31	=31	=31	=31	=31	=31	=31	=31	=31	=31	=31	=31	=31
8AA/L	.	8A/L	.	8c/L	.	8c/L	.	2.r	2.r	.	2.ryy	.	2.r	.	2.r	.	2.r	.	2.r	.	2.r	.	2.r	.
16AA/L	.	16A/L	.	16c/L	.	16c/L	.	.	.	.	.	.	.	.	.	.	.	.	.	.	.	.	.	.
16AA/JJ	.	16A/JJ	.	16c/JJ	.	16c/JJ	.	.	.	.	.	.	.	.	.	.	.	.	.	.	.	.	.	.
8AA/L	.	8A/L	.	8c/L	.	8c/L	.	.	.	.	.	.	.	.	.	.	.	.	.	.	.	.	.	.
8AA/	.	8A/	.	8c/J	.	8c/J	.	.	.	.	.	.	.	.	.	.	.	.	.	.	.	.	.	.
!	!LO:DY:b	!	!LO:DY:b	!	!	!	!LO:DY:a	!	!	!	!	!	!	!	!	!	!	!	!	!	!	!	!	!
8D/	sf	8F#X/	sf	8A/L	.	8d/L	sf	.	.	.	.	.	.	.	.	.	.	.	.	.	.	.	.	.
8D/J	.	8F#/J	.	8A/J	.	8c/J	.	.	.	.	.	.	.	.	.	.	.	.	.	.	.	.	.	.
=32	=32	=32	=32	=32	=32	=32	=32	=32	=32	=32	=32	=32	=32	=32	=32	=32	=32	=32	=32	=32	=32	=32	=32	=32
*	*	*	*	*	*	*	*	*	*	*	*^	*	*	*	*	*	*^	*	*^	*	*	*	*	*
!	!	!	!	!	!	!	!	!	!	!	!LO:TX:a:t=P:problem=od tego miejsca partia bandy zapisana na jednej linii; w edycji pozostawiono konwencję zapisu z wcześniejszych taktów	!	!	!	!	!	!	!	!	!	!	!	!	!	!	!	!
!	!LO:DY:b	!	!LO:DY:b	!	!	!	!	!	!	!	!LO:TX:t=P:problem=od tego miejsca banda przeniesiona na sam dół	!	!	!	!	!	!	!	!	!LO:DY:b	!	!	!LO:DY:b	!	!LO:DY:b	!	!
8G\L	f	8G/L	f	8G/L	.	8B/L	.	4r	8r	.	8r	8ryy	.	8r	.	8r	.	8r	8ryy	f	8r	8ryy	f	8r	f	8r	.
!	!	!	!	!	!	!	!LO:DY:b:rj	!	!	!LO:DY:b:rj	!	!	!	!	!LO:DY:b:rj	!	!	!	!	!	!	!	!	!	!	!	!LO:DY:b:rj
16D\L	.	16dL 16A/	.	16c/L	.	16f#X/L	f	.	16D\LL	f	32G/LLL	8C\L	.	16f#XLL 16d/	f	16A\LL	.	16a/LL	16g\LL	.	16ff#XLL 16cc\	8ryy	.	16aa\LL	.	16ff#X\LL	f
.	.	.	.	.	.	.	.	.	.	.	32G/	.	.	.	.	.	.	.	.	.	.	.	.	.	.	.	.
16D\JJ	.	16dJJ 16A/	.	16c/JJ	.	16f#/JJ	.	.	16D\JJ	.	32G/	.	.	16f#JJ 16d/	.	16A\JJ	.	16a/JJ	16g\JJ	.	16ff#JJ 16cc\	.	.	16aa\JJ	.	16ff#\JJ	.
.	.	.	.	.	.	.	.	.	.	.	32G/JJJ	.	.	.	.	.	.	.	.	.	.	.	.	.	.	.	.
8G\L	.	8dL 8G/	.	8B/L	.	8g/L	.	4r	8G\L	.	8G/L	8C\	.	8gL 8d/	.	8B\L	.	8a/L	8d\L	.	8ggL 8b\	4ryy	.	8bb\L	.	8gg\L	.
8D\J	.	8dJ 8A/	.	8c/J	.	8f#/J	.	.	8D\J	.	8G/J	8C\J	.	8f#J 8d/	.	8A\J	.	8a/J	8g\J	.	8ff#J 8cc\	.	.	8aa\J	.	8ff#\J	.
8G\	.	8d 8G/	.	8B/	.	8g/	.	8.r	8G\	.	8G/	8C\	.	8g 8d/	.	8B\	.	8a/	8d\	.	8gg/	8gg 8b\	.	8bb\	.	8gg\	.
!	!	!	!	!	!	!	!	!	!	!	!	!	!	!	!	!	!	!	!	!	!	!	!LO:DY:b	!	!	!	!
8r	.	8r	.	8r	.	8r	.	.	8r	.	8r	8ryy	.	8r	.	8r	.	8r	8ryy	.	16ryy	8r	p	8r	.	8r	.
.	.	.	.	.	.	.	.	16gg\	.	.	.	.	.	.	.	.	.	.	.	.	16g/	.	.	.	.	.	.
!	!	!	!	!	!	!	!	!LO:TX:a:t=[segno]	!	!	!	!	!	!	!	!	!	!	!	!	!	!	!	!	!	!	!
*	*	*	*	*	*	*	*	*	*	*	*	*	*	*	*	*	*	*v	*v	*	*	*	*	*	*	*	*
!	!	!	!	!	!	!	!	!	!	!	!	!	!	!	!	!	!	!	!	!	!	!	!	!	!LO:TX:a:t=[segno]	!
!!LO:PB:g=original
=33||	=33||	=33||	=33||	=33||	=33||	=33||	=33||	=33||	=33||	=33||	=33||	=33||	=33||	=33||	=33||	=33||	=33||	=33||	=33||	=33||	=33||	=33||	=33||	=33||	=33||	=33||
*>E	*	*>E	*	*>E	*	*>E	*	*>E	*>E	*	*>E	*>E	*	*>E	*	*>E	*	*>E	*	*>E	*>E	*	*>E	*	*>E	*
!	!	!	!	!	!	!	!	!	!	!	!	!	!	!	!	!	!LO:DY:b	!	!	!	!	!	!	!	!	!
!	!	!	!LO:DY:b	!	!	!	!	!	!	!	!LO:TX:a:t=P:problem=w kolejnych taktach partia bandy tymczasowo znika	!	!	!	!	!	!	!	!	!	!	!	!	!	!	!
4C/	p	8r	p	8r	.	8r	p	(4.gg\	2.r	.	2.ryy	2.ryy	.	2.r	.	8r	p	2.r	.	(>4.g/	2.rf	.	2.r	.	2.r	.
.	.	8c\	.	8c/	.	8e 8G/	.	.	.	.	.	.	.	.	.	(>8C\L|	.	.	.	.	.	.	.	.	.	.
*	*	*tremolo	*	*tremolo	*	*tremolo	*	*	*	*	*	*	*	*	*	*	*	*	*	*	*	*	*	*	*	*
4r	.	8c\L	.	8c/L	.	8eL 8G/	.	.	.	.	.	.	.	.	.	8E\)	.	.	.	.	.	.	.	.	.	.
.	.	8c\	.	8c/	.	8e 8G/	.	8eee\L	.	.	.	.	.	.	.	(>8G\	.	.	.	8ee/L)	.	.	.	.	.	.
4r	.	8c\	.	8c/	.	8e 8G/	.	(>8bb\	.	.	.	.	.	.	.	8c\)	.	.	.	(>8b/	.	.	.	.	.	.
.	.	8c\J	.	8c/J	.	8eJ 8G/	.	8ccc\J))	.	.	.	.	.	.	.	8e'\J	.	.	.	8cc/J)	.	.	.	.	.	.
=34	=34	=34	=34	=34	=34	=34	=34	=34	=34	=34	=34	=34	=34	=34	=34	=34	=34	=34	=34	=34	=34	=34	=34	=34	=34	=34
*	*	*rep	*	*rep	*	*rep	*	*	*	*	*	*	*	*	*	*	*	*	*	*	*	*	*	*	*	*
*	*	*	*	*	*	*	*	*	*	*	*	*	*	*	*	*rep	*	*	*	*	*	*	*	*	*	*
4C/	.	8r	p	8r	.	8r	p	(>16ff#X\LL	2.ryy	.	2.ryy	2.ryy	.	2.ryy	.	8r	.	2.r	.	(<16f#X/LL	2.rf	.	2.ryy	.	2.ryy	.
.	.	.	.	.	.	.	.	16gg\	.	.	.	.	.	.	.	.	.	.	.	16g/	.	.	.	.	.	.
.	.	8c\	.	8c/	.	8e 8G/	.	16aa\	.	.	.	.	.	.	.	(>8C\L|	.	.	.	16a/	.	.	.	.	.	.
.	.	.	.	.	.	.	.	16gg\JJ	.	.	.	.	.	.	.	.	.	.	.	16g/JJ)	.	.	.	.	.	.
4r	.	8c\L	.	8c/L	.	8eL 8G/	.	4.ee\)	.	.	.	.	.	.	.	8E\)	.	.	.	4.e/	.	.	.	.	.	.
.	.	8c\	.	8c/	.	8e 8G/	.	.	.	.	.	.	.	.	.	(>8G\	.	.	.	.	.	.	.	.	.	.
4r	.	8c\	.	8c/	.	8e 8G/	.	.	.	.	.	.	.	.	.	8c\)	.	.	.	.	.	.	.	.	.	.
.	.	8c\J	.	8c/J	.	8eJ 8G/	.	8gg\	.	.	.	.	.	.	.	8e'\J	.	.	.	8g/	.	.	.	.	.	.
*	*	*	*	*Xtremolo	*	*Xtremolo	*	*	*	*	*	*	*	*	*	*Xrep	*	*	*	*	*	*	*	*	*	*
*	*	*Xrep	*	*Xrep	*	*Xrep	*	*	*	*	*	*	*	*	*	*	*	*	*	*	*	*	*	*	*	*
=35	=35	=35	=35	=35	=35	=35	=35	=35	=35	=35	=35	=35	=35	=35	=35	=35	=35	=35	=35	=35	=35	=35	=35	=35	=35	=35
*	*	*	*	*	*	*	*	*	*	*	*	*	*	*	*	*rep	*	*	*	*	*	*	*	*	*	*
*	*	*	*	*	*	*	*	*	*	*	*	*	*	*	*	*	*	*^	*	*	*	*	*	*	*	*
!	!	!	!	!	!	!	!	!	!	!	!	!	!	!	!	!	!	!	!	!LO:DY:b:rj	!	!	!	!	!	!	!
8C/	.	8r	.	8r	.	8r	.	8ccc\L|	2.ryy	.	2.ryy	2.ryy	.	2.ryy	.	8r	.	2.b/	2.g\	p	8cc/L	2.r	.	2.ryy	.	2.ryy	.
8r	.	8c\	.	8c/	.	8e 8G/	.	(>8ccc\ss	.	.	.	.	.	.	.	(>8C\L|	.	.	.	.	(>8cc/S	.	.	.	.	.	.
*	*	*rep	*	*rep	*	*rep	*	*	*	*	*	*	*	*	*	*	*	*	*	*	*	*	*	*	*	*	*
8C/	.	8r	.	8r	.	8r	.	8eee\)	.	.	.	.	.	.	.	8E\)	.	.	.	.	8ee/)	.	.	.	.	.	.
8r	.	8c\	.	8c/	.	8e 8G/	.	8ccc\J	.	.	.	.	.	.	.	(>8G\	.	.	.	.	8cc/J	.	.	.	.	.	.
*	*	*Xrep	*	*Xrep	*	*Xrep	*	*	*	*	*	*	*	*	*	*	*	*	*	*	*	*	*	*	*	*	*
*	*	*rep	*	*rep	*	*rep	*	*	*	*	*	*	*	*	*	*	*	*	*	*	*	*	*	*	*	*	*
8C/	.	8r	.	8r	.	8r	.	16ee\LL	.	.	.	.	.	.	.	8c\)	.	.	.	.	(>16e/LL	.	.	.	.	.	.
.	.	.	.	.	.	.	.	16ff\	.	.	.	.	.	.	.	.	.	.	.	.	16f/	.	.	.	.	.	.
8r	.	8c\	.	8c/	.	8e 8G/	.	16gg\	.	.	.	.	.	.	.	8e'\J	.	.	.	.	16g/	.	.	.	.	.	.
.	.	.	.	.	.	.	.	16aa\JJ	.	.	.	.	.	.	.	.	.	.	.	.	16a/JJ	.	.	.	.	.	.
*	*	*Xrep	*	*Xrep	*	*Xrep	*	*	*	*	*	*	*	*	*	*	*	*	*	*	*	*	*	*	*	*	*
*	*	*	*	*	*	*	*	*	*	*	*	*	*	*	*	*	*	*v	*v	*	*	*	*	*	*	*	*
*	*	*	*	*	*	*	*	*	*	*	*	*	*	*	*	*Xrep	*	*	*	*	*	*	*	*	*	*
=36	=36	=36	=36	=36	=36	=36	=36	=36	=36	=36	=36	=36	=36	=36	=36	=36	=36	=36	=36	=36	=36	=36	=36	=36	=36	=36
4G\	.	8r	.	8r	.	8r	.	(>[>4gg\	2.ryy	.	2.ryy	2.ryy	.	2.ryy	.	8r	.	2.a/ 2.d/	.	(>[>4g/)	2.rf	.	2.ryy	.	2.ryy	.
.	.	8d\	.	8B/	.	8f 8G/	.	.	.	.	.	.	.	.	.	(>8GG\L	.	.	.	.	.	.	.	.	.	.
4r	.	8d\L	.	8B/L	.	8fL 8G/	.	16gg\LL]	.	.	.	.	.	.	.	8D\)	.	.	.	16g/LL]	.	.	.	.	.	.
.	.	.	.	.	.	.	.	16ff\	.	.	.	.	.	.	.	.	.	.	.	16f/	.	.	.	.	.	.
.	.	8d\	.	8B/	.	8f 8G/	.	16aa\	.	.	.	.	.	.	.	(>8F\	.	.	.	16a/	.	.	.	.	.	.
.	.	.	.	.	.	.	.	16gg\JJ	.	.	.	.	.	.	.	.	.	.	.	16g/JJ)	.	.	.	.	.	.
4r	.	8d\	.	8B/	.	8f 8G/	.	4ff\)	.	.	.	.	.	.	.	8G\)	.	.	.	4f/	.	.	.	.	.	.
.	.	8d\J	.	8B/J	.	8fJ 8G/	.	.	.	.	.	.	.	.	.	8B\J|	.	.	.	.	.	.	.	.	.	.
=37	=37	=37	=37	=37	=37	=37	=37	=37	=37	=37	=37	=37	=37	=37	=37	=37	=37	=37	=37	=37	=37	=37	=37	=37	=37	=37
*	*	*rep	*	*rep	*	*rep	*	*	*	*	*	*	*	*	*	*rep	*	*	*	*	*	*	*	*	*	*
4GG/	.	8r	.	8r	.	8r	.	(>4.ff\	2.ryy	.	2.ryy	2.ryy	.	2.ryy	.	8r	.	2.r	.	4.f/	2.rf	.	2.ryy	.	2.ryy	.
.	.	8d\	.	8B/	.	8f 8G/	.	.	.	.	.	.	.	.	.	(>8GG\L	.	.	.	.	.	.	.	.	.	.
4r	.	8d\L	.	8B/L	.	8fL 8G/	.	.	.	.	.	.	.	.	.	8D\)	.	.	.	.	.	.	.	.	.	.
.	.	8d\	.	8B/	.	8f 8G/	.	8fff\)	.	.	.	.	.	.	.	(>8F\	.	.	.	8ff/	.	.	.	.	.	.
4r	.	8d\	.	8B/	.	8f 8G/	.	(>8ccc#X\L	.	.	.	.	.	.	.	8G\)	.	.	.	8cc#X/L	.	.	.	.	.	.
.	.	8d\J	.	8B/J	.	8fJ 8G/	.	8ddd\J)	.	.	.	.	.	.	.	8B\J|	.	.	.	8dd/J	.	.	.	.	.	.
*	*	*Xrep	*	*Xrep	*	*Xrep	*	*	*	*	*	*	*	*	*	*Xrep	*	*	*	*	*	*	*	*	*	*
!!LO:PB:g=original
=38	=38	=38	=38	=38	=38	=38	=38	=38	=38	=38	=38	=38	=38	=38	=38	=38	=38	=38	=38	=38	=38	=38	=38	=38	=38	=38
4GG/	.	8r	.	8r	.	8r	.	(>16aa#X\LL	2.ryy	.	2.ryy	2.ryy	.	2.ryy	.	8r	.	2.r	.	(>16a#X/LL	2.rf	.	2.ryy	.	2.ryy	.
.	.	.	.	.	.	.	.	16bb\	.	.	.	.	.	.	.	.	.	.	.	16b/	.	.	.	.	.	.
.	.	8d\	.	8B/	.	8f 8G/	.	16ccc\	.	.	.	.	.	.	.	(<8GG/L	.	.	.	16cc/	.	.	.	.	.	.
.	.	.	.	.	.	.	.	16bb\JJ)	.	.	.	.	.	.	.	.	.	.	.	16b/JJ	.	.	.	.	.	.
4r	.	8d\L	.	8B/L	.	8fL 8G/	.	8gg\	.	.	.	.	.	.	.	8D/)	.	.	.	8g/)	.	.	.	.	.	.
.	.	8d\	.	8B/	.	8f 8G/	.	(>16gg\LL	.	.	.	.	.	.	.	(<8F/	.	.	.	(>16g/LL	.	.	.	.	.	.
.	.	.	.	.	.	.	.	16aa#\JJ)	.	.	.	.	.	.	.	.	.	.	.	16a#/JJ)	.	.	.	.	.	.
4r	.	8d\	.	8B/	.	8f 8G/	.	16bb'\LL	.	.	.	.	.	.	.	8G/)	.	.	.	16b'>/LL	.	.	.	.	.	.
.	.	.	.	.	.	.	.	16ccc'\	.	.	.	.	.	.	.	.	.	.	.	16cc'>/	.	.	.	.	.	.
.	.	8d\J	.	8B/J	.	8fJ 8G/	.	16ddd'\	.	.	.	.	.	.	.	8B'/J	.	.	.	16dd'>/	.	.	.	.	.	.
.	.	.	.	.	.	.	.	16eee'\JJ	.	.	.	.	.	.	.	.	.	.	.	16ee'>/JJ	.	.	.	.	.	.
*	*	*	*	*	*	*Xtremolo	*	*	*	*	*	*	*	*	*	*	*	*	*	*	*	*	*	*	*	*
=39	=39	=39	=39	=39	=39	=39	=39	=39	=39	=39	=39	=39	=39	=39	=39	=39	=39	=39	=39	=39	=39	=39	=39	=39	=39	=39
*	*	*	*	*	*	*	*	*	*	*	*	*	*	*	*	*rep	*	*	*	*	*	*	*	*	*	*
!	!	!	!	!	!	!	!	!	!	!	!	!	!	!	!	!	!LO:DY:b:rj	!	!LO:DY:b:rj	!	!	!	!	!	!	!
8GG/	.	8r	.	8r	.	8r	.	8fff\	2.ryy	.	2.ryy	2.ryy	.	2.ryy	.	8r	.	2.a/ 2.d/	p	8ff/	2.rf	.	2.ryy	.	2.ryy	.
8r	.	8d\	.	8B/	.	8f 8G/	.	4ddd^<\	.	.	.	.	.	.	.	(<8GG/L	.	.	.	4dd/	.	.	.	.	.	.
*	*	*rep	*	*rep	*	*rep	*	*	*	*	*	*	*	*	*	*	*	*	*	*	*	*	*	*	*	*
8G\	.	8r	.	8r	.	8r	.	.	.	.	.	.	.	.	.	8D/)	.	.	.	.	.	.	.	.	.	.
8r	.	8d\	.	8B/	.	8f 8G/	.	4bb^<\	.	.	.	.	.	.	.	(<8F/	.	.	.	4b/	.	.	.	.	.	.
*	*	*Xrep	*	*Xrep	*	*Xrep	*	*	*	*	*	*	*	*	*	*	*	*	*	*	*	*	*	*	*	*
*	*	*rep	*	*rep	*	*rep	*	*	*	*	*	*	*	*	*	*	*	*	*	*	*	*	*	*	*	*
8GG/	.	8r	.	8r	.	8r	.	.	.	.	.	.	.	.	.	8G/)	.	.	.	.	.	.	.	.	.	.
8r	.	8d\	.	8B/	.	8f 8G/	.	8ff\	.	.	.	.	.	.	.	8B'/J	.	.	.	8f/	.	.	.	.	.	.
*	*	*Xrep	*	*Xrep	*	*Xrep	*	*	*	*	*	*	*	*	*	*Xrep	*	*	*	*	*	*	*	*	*	*
*	*	*Xtremolo	*	*Xtremolo	*	*	*	*	*	*	*	*	*	*	*	*	*	*	*	*	*	*	*	*	*	*
=40	=40	=40	=40	=40	=40	=40	=40	=40	=40	=40	=40	=40	=40	=40	=40	=40	=40	=40	=40	=40	=40	=40	=40	=40	=40	=40
*	*	*	*	*	*	*	*	*	*	*	*	*	*	*	*	*	*	*^	*	*	*	*	*	*	*	*
4C/	.	8r	.	8r	.	8r	.	(>8.aa\L	2.ryy	.	2.ryy	2.ryy	.	2.ryy	.	8r	.	[>2b/	[>2g\	.	(>8.a/L	2.rf	.	2.ryy	.	2.ryy	.
.	.	8c\	.	8c/	.	8e 8G/	.	.	.	.	.	.	.	.	.	(>8C\L	.	.	.	.	.	.	.	.	.	.	.
.	.	.	.	.	.	.	.	16gg\Jk	.	.	.	.	.	.	.	.	.	.	.	.	16g/Jk	.	.	.	.	.	.
4r	.	8c\L	.	8c/L	.	8eL 8G/	.	16ff#X\LL	.	.	.	.	.	.	.	8E\)	.	.	.	.	16f#X/LL	.	.	.	.	.	.
.	.	.	.	.	.	.	.	16gg\	.	.	.	.	.	.	.	.	.	.	.	.	16g/	.	.	.	.	.	.
.	.	8c\J	.	8c/J	.	8eJ 8G/	.	16aa\	.	.	.	.	.	.	.	(>8G\J	.	.	.	.	16a/	.	.	.	.	.	.
.	.	.	.	.	.	.	.	16gg\JJ)	.	.	.	.	.	.	.	.	.	.	.	.	16g/JJ)	.	.	.	.	.	.
4r	.	8c\	.	8c/	.	8e 8G/	.	8ee\L	.	.	.	.	.	.	.	8c\)	.	8b/]	8g\]	.	8e/	.	.	.	.	.	.
!	!	!	!	!	!	!	!	!LO:TUP:a:problem=klamra łukowa	!	!	!	!	!	!	!	!	!	!	!	!	!LO:TUP:a:problem=klamra łukowa	!	!	!	!	!	!
.	.	8r	.	8r	.	8r	.	24ee\L	.	.	.	.	.	.	.	8r	.	8r	8ryy	.	24cc/LL	.	.	.	.	.	.
.	.	.	.	.	.	.	.	24ff#\	.	.	.	.	.	.	.	.	.	.	.	.	24dd/	.	.	.	.	.	.
.	.	.	.	.	.	.	.	24ff#X\JJ	.	.	.	.	.	.	.	.	.	.	.	.	24dd#X/JJ	.	.	.	.	.	.
*	*	*	*	*	*	*	*	*	*	*	*	*	*	*	*	*	*	*v	*v	*	*	*	*	*	*	*	*
=41	=41	=41	=41	=41	=41	=41	=41	=41	=41	=41	=41	=41	=41	=41	=41	=41	=41	=41	=41	=41	=41	=41	=41	=41	=41	=41
8C/	.	8r	.	8r	.	8r	.	8gg\|	2.ryy	.	2.ryy	2.ryy	.	2.ryy	.	2.r	.	2.r	.	8ee/	2.rf	.	2.ryy	.	2.ryy	.
8r	.	8c\	.	8c/	.	8e 8G/	.	4ee^<\|	.	.	.	.	.	.	.	.	.	.	.	4cc/|	.	.	.	.	.	.
*	*	*rep	*	*rep	*	*rep	*	*	*	*	*	*	*	*	*	*	*	*	*	*	*	*	*	*	*	*
8C/	.	8r	.	8r	.	8r	.	.	.	.	.	.	.	.	.	.	.	.	.	.	.	.	.	.	.	.
8r	.	8c\	.	8c/	.	8e 8G/	.	(>16eee\LL	.	.	.	.	.	.	.	.	.	.	.	(>16ccc/LL	.	.	.	.	.	.
.	.	.	.	.	.	.	.	16ddd\JJ	.	.	.	.	.	.	.	.	.	.	.	16bb/JJ	.	.	.	.	.	.
*	*	*Xrep	*	*Xrep	*	*Xrep	*	*	*	*	*	*	*	*	*	*	*	*	*	*	*	*	*	*	*	*
*	*	*rep	*	*rep	*	*rep	*	*	*	*	*	*	*	*	*	*	*	*	*	*	*	*	*	*	*	*
8C/	.	8r	.	8r	.	8r	.	16ccc\LL	.	.	.	.	.	.	.	.	.	.	.	16aa/LL	.	.	.	.	.	.
.	.	.	.	.	.	.	.	16bb\	.	.	.	.	.	.	.	.	.	.	.	16gg/	.	.	.	.	.	.
8r	.	8c\	.	8c/	.	8e 8G/	.	16aa\	.	.	.	.	.	.	.	.	.	.	.	16ff/	.	.	.	.	.	.
.	.	.	.	.	.	.	.	16gg\JJ)	.	.	.	.	.	.	.	.	.	.	.	16ee/JJ	.	.	.	.	.	.
*	*	*Xrep	*	*Xrep	*	*Xrep	*	*	*	*	*	*	*	*	*	*	*	*	*	*	*	*	*	*	*	*
*	*	*	*	*	*	*	*	*	*	*	*v	*v	*	*	*	*	*	*	*	*	*	*	*	*	*	*
!!LO:PB:g=original
=42	=42	=42	=42	=42	=42	=42	=42	=42	=42	=42	=42	=42	=42	=42	=42	=42	=42	=42	=42	=42	=42	=42	=42	=42	=42
!	!	!	!	!	!	!	!	!	!	!	!	!	!	!	!	!	!	!	!LO:TX:a:t=P:problem=w źródle brak dokończenia łuku	!	!	!	!	!	!
!	!	!	!	!	!	!	!	!	!	!	!LO:TX:a:t=P:problem=od tego miejsca partia bandy powraca	!	!	!	!	!	!	!	!	!	!	!	!	!	!
8G\	.	8r	.	8r	.	8r	.	8ff\	2.r	.	2.r	.	2.r	.	2.r	.	2.r	.	8dd/)	2.rf	.	2.r	.	2.r	.
8r	.	8d\	.	8B/	.	8f 8G/	.	4dd^<\	.	.	.	.	.	.	.	.	.	.	4b^>/	.	.	.	.	.	.
*	*	*rep	*	*rep	*	*rep	*	*	*	*	*	*	*	*	*	*	*	*	*	*	*	*	*	*	*
8GG/	.	8r	.	8r	.	8r	.	.	.	.	.	.	.	.	.	.	.	.	.	.	.	.	.	.	.
8r	.	8d\	.	8B/	.	8f 8G/	.	16ddd\LL	.	.	.	.	.	.	.	.	.	.	16bb/LL	.	.	.	.	.	.
.	.	.	.	.	.	.	.	16ccc\JJ	.	.	.	.	.	.	.	.	.	.	16aa/JJ	.	.	.	.	.	.
*	*	*Xrep	*	*Xrep	*	*Xrep	*	*	*	*	*	*	*	*	*	*	*	*	*	*	*	*	*	*	*
*	*	*rep	*	*rep	*	*rep	*	*	*	*	*	*	*	*	*	*	*	*	*	*	*	*	*	*	*
8GG/	.	8r	.	8r	.	8r	.	16bb\LL	.	.	.	.	.	.	.	.	.	.	16gg/LL	.	.	.	.	.	.
.	.	.	.	.	.	.	.	16aa\	.	.	.	.	.	.	.	.	.	.	16ff/	.	.	.	.	.	.
8r	.	8d\	.	8B/	.	8f 8G/	.	16gg\	.	.	.	.	.	.	.	.	.	.	16ee/	.	.	.	.	.	.
.	.	.	.	.	.	.	.	16ff\JJ	.	.	.	.	.	.	.	.	.	.	16dd/JJ	.	.	.	.	.	.
*	*	*Xrep	*	*Xrep	*	*Xrep	*	*	*	*	*	*	*	*	*	*	*	*	*	*	*	*	*	*	*
=43	=43	=43	=43	=43	=43	=43	=43	=43	=43	=43	=43	=43	=43	=43	=43	=43	=43	=43	=43	=43	=43	=43	=43	=43	=43
*	*	*	*	*	*	*	*	*	*	*	*	*	*	*	*	*	*^	*	*	*	*	*	*	*	*
8C/	.	8c\	.	8c/	.	8e 8G/	.	8ee\	8r	.	2.r	.	8r	.	8r	.	8r	8ryy	.	8cc/	8re	.	8r	.	8r	.
4E^<\	.	4c\	.	4g^</	.	4b-X^</	.	4bb-X'^<\	4E^>\	.	.	.	4b-X 4g^</	.	4E\	.	4dd/	4g\	.	4gg^>/	4cc^<\	.	4bb-X\	.	4bb-X^<\	.
4F^<\	.	4c\	.	4f^</	.	4a^</	.	4aa'^<\	4F^>\	.	.	.	4a 4f^</	.	4F\	.	4cc/	4g\	.	4ff^>/	4cc^<\	.	4aa\	.	4aa^<\	.
(>8E\	.	8c\	.	[<8c^</	.	(<8g#X^</	.	(>8gg#X^<\	(>8E\	.	.	.	8g#X 8e^</	.	(>8E\	.	8b/	8g\	.	8ee/	[>8cc^<\	.	(>8gg#X\	.	(>8gg#X^<\	.
=44	=44	=44	=44	=44	=44	=44	=44	=44	=44	=44	=44	=44	=44	=44	=44	=44	=44	=44	=44	=44	=44	=44	=44	=44	=44	=44
*	*	*	*	*	*	*	*	*	*	*	*^	*	*^	*	*	*	*	*	*	*	*	*	*	*	*	*
8F\L)	.	8c\	.	8c/]	.	8a/L)	.	8aa\L)	8F\L)	.	4r	4ryy	.	8a/L	8f\L	.	8F\L)	.	8cc/L	8g\	.	8ff/	8cc\]	.	8aa\L)	.	8aa\L)	.
(8E\|	.	4c\	.	4c^</	.	(<8g#X/	.	(>8gg#X^<\	(>8E\	.	.	.	.	(>8g#X/	8e\^<	.	(>8E\	.	8b/	4g\	.	4cc/	4cc^<\	.	(>8gg#X\	.	(8gg#X^<\|	.
8F\)	.	.	.	.	.	8a/)	.	8aa\)	8F\)	.	4r	4ryy	.	8a/)	8f\	.	8F\)	.	8cc/	.	.	.	.	.	8aa\)	.	8aa\)	.
(8E\|	.	4c\	.	4c^</	.	(<8g#/	.	(>8gg#^<\	(>8E\	.	.	.	.	(>8g#/	8e\^<	.	(>8E\	.	8b/	4g\	.	4cc/	4cc^<\	.	(>8gg#\	.	(8gg#^<\|	.
8F\)	.	.	.	.	.	8a/)	.	8aa\)	8F\)	.	8r	8ryy	.	8a/J)	8f\J	.	8F\)	.	8cc/	.	.	.	.	.	8aa\)	.	8aa\)	.
!	!	!	!LO:DY:b	!	!LO:DY:b	!	!LO:DY:b	!	!	!	!	!	!	!	!	!	!	!LO:DY:b	!	!	!	!	!	!	!	!	!	!
8F#X\J|	.	8A/	sf	8e-X/|	sf	8cc/J|	sf	8ccc\J|	8F#X\J|	.	32G/LLL	8C\	.	8cc/	8a\	.	8F#X'\J	sf	8b-X/J	8g\	.	8ee-X/	8a\	sf	8ccc'\J	.	8ccc\J|	.
.	.	.	.	.	.	.	.	.	.	.	32G/	.	.	.	.	.	.	.	.	.	.	.	.	.	.	.	.	.
.	.	.	.	.	.	.	.	.	.	.	32G/	.	.	.	.	.	.	.	.	.	.	.	.	.	.	.	.	.
.	.	.	.	.	.	.	.	.	.	.	32G/JJJ	.	.	.	.	.	.	.	.	.	.	.	.	.	.	.	.	.
*	*	*	*	*	*	*	*	*	*	*	*	*	*	*v	*v	*	*	*	*	*	*	*	*	*	*	*	*	*
=45	=45	=45	=45	=45	=45	=45	=45	=45	=45	=45	=45	=45	=45	=45	=45	=45	=45	=45	=45	=45	=45	=45	=45	=45	=45	=45	=45
8G\	.	8c\	.	8en/	.	8g/	.	8gg\L|	8G\	.	8G/	8C\	.	8cc 8g/	.	8G\	.	8bn/	8g\	.	8een/L|	8g\	.	8gg\	.	8gg\	.
8r	.	8r	.	8r	.	8r	.	(>16eee\L	8r	.	8r	8ryy	.	8r	.	8r	.	8r	8ryy	.	(>16gg/L	8rc	.	8r	.	8r	.
.	.	.	.	.	.	.	.	16ddd\JJ)	.	.	.	.	.	.	.	.	.	.	.	.	16ff/JJ)	.	.	.	.	.	.
4r	.	4r	.	4r	.	4r	.	16ccc'\LL	4r	.	4r	4ryy	.	4r	.	16GG'/LL	.	4r	4ryy	.	16ee'>/LL	4rc	.	4r	.	4r	.
.	.	.	.	.	.	.	.	16bb'\	.	.	.	.	.	.	.	16AA'/	.	.	.	.	16dd'>/	.	.	.	.	.	.
.	.	.	.	.	.	.	.	16aa'\	.	.	.	.	.	.	.	16BB'/	.	.	.	.	16cc'>/	.	.	.	.	.	.
.	.	.	.	.	.	.	.	16gg'\JJ	.	.	.	.	.	.	.	16C'/JJ	.	.	.	.	16b'>/JJ	.	.	.	.	.	.
4r	.	4r	.	4r	.	4r	.	16ff'\LL	4r	.	4r	4ryy	.	4r	.	16D'/LL	.	4r	4ryy	.	16a'>/LL	4rc	.	4r	.	4r	.
.	.	.	.	.	.	.	.	16ee'\	.	.	.	.	.	.	.	16E'/	.	.	.	.	16g'>/	.	.	.	.	.	.
.	.	.	.	.	.	.	.	16dd'\	.	.	.	.	.	.	.	16F'/	.	.	.	.	16f'>/	.	.	.	.	.	.
.	.	.	.	.	.	.	.	16cc'\JJ	.	.	.	.	.	.	.	16G'/JJ	.	.	.	.	16e'>/JJ	.	.	.	.	.	.
*	*	*	*	*	*	*	*	*	*	*	*	*	*	*	*	*	*	*v	*v	*	*	*	*	*	*	*	*
*	*	*	*	*	*	*	*	*	*	*	*v	*v	*	*	*	*	*	*	*	*v	*v	*	*	*	*	*
!!LO:PB:g=original
=46	=46	=46	=46	=46	=46	=46	=46	=46	=46	=46	=46	=46	=46	=46	=46	=46	=46	=46	=46	=46	=46	=46	=46	=46
!	!	!	!	!	!	!	!	!	!	!	!LO:TX:t=P:problem= w tym takcie partia bandy znów znika	!	!	!	!	!	!	!	!	!	!	!	!	!
8G\	.	8d\	.	8B/	.	8f 8G'>/	.	(>16aa\LL	2.r	.	2.ryy	.	2.r	.	8.r	.	8.r	.	(<16B/LL	.	2.r	.	2.r	.
.	.	.	.	.	.	.	.	16gg\	.	.	.	.	.	.	.	.	.	.	16d/	.	.	.	.	.
8r	.	8r	.	8r	.	8r	.	16ff\)	.	.	.	.	.	.	.	.	.	.	16f/)	.	.	.	.	.
!	!	!	!	!	!	!	!	!	!	!	!	!	!	!	!	!	!	!LO:DY:b:rj	!	!	!	!	!	!
.	.	.	.	.	.	.	.	32rb	.	.	.	.	.	.	16G\	.	16a 16d/|<	p	32r	.	.	.	.	.
.	.	.	.	.	.	.	.	32b\JJk|	.	.	.	.	.	.	.	.	.	.	32g/JJk	.	.	.	.	.
8r	.	(>4d\	.	(<4B/	.	4f 4G/	.	(>4dd\	.	.	.	.	.	.	(>4B\	.	(<4a 4d/	.	(>4f/	.	.	.	.	.
8GG/L	.	.	.	.	.	.	.	.	.	.	.	.	.	.	.	.	.	.	.	.	.	.	.	.
8C/J	.	8c\)	.	8c/)	.	8e 8G/	.	8cc\)	.	.	.	.	.	.	8c\)	.	8g 8B/)	.	8e/)	.	.	.	.	.
8r	.	8r	.	8r	.	8r	.	8r	.	.	.	.	.	.	8r	.	8r	.	8r	.	.	.	.	.
=47:|!	=47:|!	=47:|!	=47:|!	=47:|!	=47:|!	=47:|!	=47:|!	=47:|!	=47:|!	=47:|!	=47:|!	=47:|!	=47:|!	=47:|!	=47:|!	=47:|!	=47:|!	=47:|!	=47:|!	=47:|!	=47:|!	=47:|!	=47:|!	=47:|!
*	*	*	*	*	*	*	*	*	*	*	*^	*	*^	*	*	*	*^	*	*	*	*	*	*	*
*>F	*	*>F	*	*>F	*	*>F	*	*>F	*>F	*	*>F	*>F	*	*>F	*>F	*	*>F	*	*>F	*>F	*	*>F	*	*>F	*	*>F	*
!	!	!	!	!	!	!	!	!LO:TX:a:t=P:problem=w źródle w tym miejscu partia Violino solo znika	!	!	!	!	!	!	!	!	!	!	!	!	!	!	!	!LO:TX:a:i:t=col Picolo	!	!	!
!	!	!	!	!	!	!	!	!	!LO:TX:t=P:problem=partia trombone przeniesiona w źródle o system niżej	!	!LO:TX:t=P:problem=od tego miejsca banda wraca na swoje miejsce; powraca też zapis na pięciolinii	!	!	!	!	!	!	!	!	!	!	!	!	!	!	!	!
!	!	!	!	!	!	!LO:TX:b:i:t=Violini	!	!	!LO:TX:a:i:t=Trombone	!	!LO:TX:a:i:t=Banda	!	!	!	!	!	!	!	!	!	!	!	!	!	!	!	!
!	!LO:DY:b:rj	!	!	!	!LO:DY:b	!	!LO:DY:b	!	!	!	!	!	!	!	!	!LO:DY:b:rj	!	!LO:DY:b:rj	!	!	!	!	!LO:DY:b:rj	!	!	!	!LO:DY:b:rj
8G\L|	f	8G/L	.	8g/L	f	8g/L	f	2.ryy	8GG/	.	4r	8C\	.	8g/	8g\	f	8G\L|	f	4r	4ryy	.	8g/L|<	f	8gg\L|yy	.	8gg\L|	f
(>32d\LL	.	(<32d/LL	.	(<32dd/LL	.	(<32dd/LL	.	.	8r	.	.	8r	.	8r	8ryy	.	(>32d\LL	.	.	.	.	(<32dd/LL	.	(y>32ddd\LLyy	.	(>32ddd\LL	.
32c\	.	32c/	.	32cc/	.	32cc/	.	.	.	.	.	.	.	.	.	.	32c\	.	.	.	.	32cc/	.	32ccc\yy	.	32ccc\	.
32B\	.	32B/	.	32b/	.	32b/	.	.	.	.	.	.	.	.	.	.	32B\	.	.	.	.	32b/	.	32bb\yy	.	32bb\	.
32A\JJJ	.	32A/JJJ	.	32a/JJJ	.	32a/JJJ	.	.	.	.	.	.	.	.	.	.	32A\JJJ	.	.	.	.	32a/JJJ	.	32aa\JJJyy	.	32aa\JJJ	.
8G\)	.	8G/)	.	8g/)	.	8g/)	.	.	8r	.	8rFF	8rA	.	8r	2ryy	.	8G\)	.	8r	8ryy	.	8g/)	.	8gg\)yy	.	8gg\)	.
!	!	!	!	!	!	!	!	!	!	!	!LO:TX:a:t=P:problem=cztery trzydziestodwójki zapisane jako ósemka z trzema belkami	!	!	!	!	!	!	!	!	!	!LO:DY:b:rj	!	!	!	!	!	!
8D\L	.	8f#XL 8A\	.	8ccL 8d/	.	8ff#XL 8a'\	.	.	8D\L	.	32G/LLL	8C\L	.	8ddL 8f#X'/	.	.	8A'\L	.	8a'>/L	8g\L	f	8ccL 8a'/	.	8ff#X'\Lyy	.	8ff#X'\L	.
.	.	.	.	.	.	.	.	.	.	.	32G/	.	.	.	.	.	.	.	.	.	.	.	.	.	.	.	.
.	.	.	.	.	.	.	.	.	.	.	32G/	.	.	.	.	.	.	.	.	.	.	.	.	.	.	.	.
.	.	.	.	.	.	.	.	.	.	.	32G/JJ	.	.	.	.	.	.	.	.	.	.	.	.	.	.	.	.
8G\	.	8g 8B\	.	8b 8d/	.	8gg 8b'\	.	.	8G\	.	8G/	8C\	.	8dd 8g'/	.	.	8B'\	.	8a'>/	8d\	.	8b 8g'/	.	8gg'\yy	.	8gg'\	.
8D\J	.	8f#J 8A\	.	8ccJ 8d/	.	8ff#J 8a'\	.	.	8D\J	.	8G/J	8C\J	.	8ddJ 8f#'/	.	.	8A'\J	.	8a'>/J	8g\J	.	8ccJ 8a'/	.	8ff#'\Jyy	.	8ff#'\J	.
*	*	*	*	*	*	*	*	*	*	*	*	*	*	*v	*v	*	*	*	*v	*v	*	*	*	*	*	*	*
=48	=48	=48	=48	=48	=48	=48	=48	=48	=48	=48	=48	=48	=48	=48	=48	=48	=48	=48	=48	=48	=48	=48	=48	=48	=48
8G\L|	.	8gL 8B\	.	8bL 8d/	.	8ggL 8b'\	.	2.ryy	8G\	.	8G/	8C\	.	8dd 8g/	.	8B\|	.	8a 8d/	.	8bL 8g/	.	8gg\L|yy	.	8gg\L|	.
(>32B\LL	.	(>32b\LL	.	(<32b/LL	.	(>32bb\LL	.	.	8r	.	8r	8r	.	8r	.	(>32B\LLL	.	8r	.	(<32b/LL	.	(y>32bb\LLyy	.	(>32bb\LL	.
32A\	.	32a\	.	32a/	.	32aa\	.	.	.	.	.	.	.	.	.	32A\	.	.	.	32a/	.	32aa\yy	.	32aa\	.
32G\	.	32g\	.	32g/	.	32gg\	.	.	.	.	.	.	.	.	.	32G\	.	.	.	32g/	.	32gg\yy	.	32gg\	.
32F#X\JJJ	.	32f#X\JJJ	.	32f#X/JJJ	.	32ff#X\JJJ)	.	.	.	.	.	.	.	.	.	32F#X\JJJ	.	.	.	32f#X/JJJ	.	32ff#X\JJJ)yy	.	32ff#X\JJJ)	.
8E\)	.	8e\)	.	8e/)	.	8ee\	.	.	8r	.	8r	8r	.	8r	.	8E\)	.	8r	.	8e/)	.	8ee\yy	.	8ee\	.
!	!	!	!	!	!	!	!	!	!	!	!	!LO:TX:a:t=P:problem=cztery trzydziestodwójki zapisane jako ósemka z trzema belkami	!	!	!	!	!	!	!	!	!	!	!	!	!
8BB/L	.	8f#XL 8B\	.	8aL 8B/	.	8dd#XL 8f#X/	.	.	8BB/L	.	32G/LLL	8C\L	.	8bL 8d#X'/	.	8F#'\L	.	8a#XL 8f#'>\	.	8aL 8f#X'/	.	8dd#X'\Lyy	.	8dd#X'\L	.
.	.	.	.	.	.	.	.	.	.	.	32G/	.	.	.	.	.	.	.	.	.	.	.	.	.	.
.	.	.	.	.	.	.	.	.	.	.	32G/	.	.	.	.	.	.	.	.	.	.	.	.	.	.
.	.	.	.	.	.	.	.	.	.	.	32G/JJ	.	.	.	.	.	.	.	.	.	.	.	.	.	.
8E/	.	8e 8B\	.	8g 8B/	.	8ee 8g/	.	.	8E/	.	8G/	8C\	.	8b 8e'/	.	8G'\	.	8b 8f#'>\	.	8g 8e'/	.	8ee'\yy	.	8ee'\	.
8BB/J	.	8f#J 8B\	.	8aJ 8B/	.	8dd#J 8f#/	.	.	8BB/J	.	8G/J	8C\J	.	8bJ 8d#'/	.	8F#'\J	.	8a#J 8f#'>\	.	8aJ 8f#'/	.	8dd#'\Jyy	.	8dd#'\J	.
!!LO:PB:g=original
=49	=49	=49	=49	=49	=49	=49	=49	=49	=49	=49	=49	=49	=49	=49	=49	=49	=49	=49	=49	=49	=49	=49	=49	=49	=49
*	*	*	*	*	*	*	*	*	*	*	*	*	*	*^	*	*	*	*^	*	*^	*	*	*	*	*
*tremolo	*	*tremolo	*	*tremolo	*	*	*	*	*	*	*	*	*	*	*	*	*	*	*	*	*	*	*	*	*	*	*	*
!	!	!	!	!	!	!	!	!	!	!	!	!	!	!	!	!	!	!	!	!	!	!	!	!	!	!	!LO:TX:a:i:t=Col Vo. 1o	!
8E\L	.	8e\L	.	8gL 8B/	.	16ee\LL	.	2.ryy	2E\	.	4G/	4C\	.	2b 2e/	2ryy	.	[>2G\	.	2b/	2f#\	.	[>2g/	2e\	.	16ee\LL	.	16ee\LLyy	.
.	.	.	.	.	.	16dd#X\	.	.	.	.	.	.	.	.	.	.	.	.	.	.	.	.	.	.	16dd#X\	.	16dd#X\yy	.
8E\	.	8e\	.	8g 8B/	.	16ee\	.	.	.	.	.	.	.	.	.	.	.	.	.	.	.	.	.	.	16ee\	.	16ee\yy	.
.	.	.	.	.	.	16ff#X\JJ	.	.	.	.	.	.	.	.	.	.	.	.	.	.	.	.	.	.	16ff#X\JJ	.	16ff#X\JJyy	.
8E\	.	8e\	.	8g 8B/	.	16gg\LL	.	.	.	.	4r	4ryy	.	.	.	.	.	.	.	.	.	.	.	.	16gg\LL	.	16gg\LLyy	.
.	.	.	.	.	.	16ff#\	.	.	.	.	.	.	.	.	.	.	.	.	.	.	.	.	.	.	16ff#\	.	16ff#\yy	.
8E\J	.	8e\J	.	8gJ 8B/	.	16ee\	.	.	.	.	.	.	.	.	.	.	.	.	.	.	.	.	.	.	16ee\	.	16ee\yy	.
.	.	.	.	.	.	16ff#\JJ	.	.	.	.	.	.	.	.	.	.	.	.	.	.	.	.	.	.	16ff#\JJ	.	16ff#\JJyy	.
*Xtremolo	*	*Xtremolo	*	*Xtremolo	*	*	*	*	*	*	*	*	*	*	*	*	*	*	*	*	*	*	*	*	*	*	*	*
!	!LO:DY:b	!	!LO:DY:b	!	!LO:DY:b	!	!	!	!	!	!	!	!	!	!	!	!	!	!	!	!	!	!	!	!	!	!	!
8C/L	sf	8eL 8c\	sf	8gL 8c/	sf	16gg\LL	.	.	4C/	.	4G/	4C\	.	8cc/L	4e\	.	8G\L]	.	4b/	4g\	.	8g/L]	4e\	.	16gg\LL	.	16gg\LLyy	.
.	.	.	.	.	.	16ff#\	.	.	.	.	.	.	.	.	.	.	.	.	.	.	.	.	.	.	16ff#\	.	16ff#\yy	.
8C/J	.	8eJ 8c\	.	8aJ 8c/	.	16gg\	.	.	.	.	.	.	.	8a/J	.	.	8A\J	.	.	.	.	8a/J	.	.	16gg\	.	16gg\yy	.
.	.	.	.	.	.	16aa\JJ	.	.	.	.	.	.	.	.	.	.	.	.	.	.	.	.	.	.	16aa\JJ	.	16aa\JJyy	.
=50	=50	=50	=50	=50	=50	=50	=50	=50	=50	=50	=50	=50	=50	=50	=50	=50	=50	=50	=50	=50	=50	=50	=50	=50	=50	=50	=50	=50
*tremolo	*	*tremolo	*	*	*	*	*	*	*	*	*	*	*	*	*	*	*	*	*	*	*	*	*	*	*	*	*	*
8D\L	.	8dL 8c\	.	16f#X/LL	.	16ff#X\LL	.	2.ryy	2.D\	.	8G/L	4C\	.	2.f#X/	2.c\	.	2.A\	.	2.a/	2.a\	.	2.cc/	2.a\	.	2.ff#X\	.	16ff#X\LLyy	.
.	.	.	.	16e/	.	16ee\	.	.	.	.	.	.	.	.	.	.	.	.	.	.	.	.	.	.	.	.	16ee\yy	.
!	!	!	!	!	!	!	!	!	!	!	!LO:TX:a:t=P:problem=cztery trzydziestodwójki zapisane jako ósemka z trzema belkami	!	!	!	!	!	!	!	!	!	!	!	!	!	!	!	!	!
8D\	.	8d 8c\	.	16d/	.	16dd\	.	.	.	.	32G/LL	.	.	.	.	.	.	.	.	.	.	.	.	.	.	.	16dd\yy	.
.	.	.	.	.	.	.	.	.	.	.	32G/	.	.	.	.	.	.	.	.	.	.	.	.	.	.	.	.	.
.	.	.	.	16e/JJ	.	16ee\JJ	.	.	.	.	32G/	.	.	.	.	.	.	.	.	.	.	.	.	.	.	.	16ee\JJyy	.
.	.	.	.	.	.	.	.	.	.	.	32G/JJJ	.	.	.	.	.	.	.	.	.	.	.	.	.	.	.	.	.
8D\	.	8d 8c\	.	16f#/LL	.	16ff#\LL	.	.	.	.	8G/L	4C\	.	.	.	.	.	.	.	.	.	.	.	.	.	.	16ff#\LLyy	.
.	.	.	.	16g/	.	16gg\	.	.	.	.	.	.	.	.	.	.	.	.	.	.	.	.	.	.	.	.	16gg\yy	.
8D\	.	8d 8c\	.	16a/	.	16aa\	.	.	.	.	8G/	.	.	.	.	.	.	.	.	.	.	.	.	.	.	.	16aa\yy	.
.	.	.	.	16b/JJ	.	16bb\JJ	.	.	.	.	.	.	.	.	.	.	.	.	.	.	.	.	.	.	.	.	16bb\JJyy	.
8D\	.	8d 8c\	.	16cc\LL	.	16ccc\LL	.	.	.	.	8G/	4C\	.	.	.	.	.	.	.	.	.	.	.	.	.	.	16ccc\LLyy	.
.	.	.	.	16dd\	.	16ddd\	.	.	.	.	.	.	.	.	.	.	.	.	.	.	.	.	.	.	.	.	16ddd\yy	.
8D\J	.	8dJ 8c\	.	16ee\	.	16eee\	.	.	.	.	8G/J	.	.	.	.	.	.	.	.	.	.	.	.	.	.	.	16eee\yy	.
.	.	.	.	16ff#X\JJ	.	16fff#X\JJ	.	.	.	.	.	.	.	.	.	.	.	.	.	.	.	.	.	.	.	.	16fff#X\JJyy	.
*Xtremolo	*	*	*	*	*	*	*	*	*	*	*	*	*	*	*	*	*	*	*	*	*	*	*	*	*	*	*	*
*	*	*	*	*	*	*	*	*	*	*	*	*	*	*	*	*	*	*	*v	*v	*	*	*	*	*	*	*	*
*	*	*	*	*	*	*	*	*	*	*	*	*	*	*v	*v	*	*	*	*	*	*v	*v	*	*	*	*	*
=51	=51	=51	=51	=51	=51	=51	=51	=51	=51	=51	=51	=51	=51	=51	=51	=51	=51	=51	=51	=51	=51	=51	=51	=51	=51
8G\	.	8d 8B\	.	8gg\	.	8ggg\	.	2.ryy	8G\	.	8G/	8C\	.	8g 8B/	.	8G\	.	8a 8d/	.	8b 8g/	.	8gg\L	.	8ggg\L	.
8r	.	8r	.	8r	.	8r	.	.	8r	.	8r	8ryy	.	8r	.	8r	.	8r	.	(<16f#X/LL	.	(>16ff#X\L	.	(>16ff#X\L	.
.	.	.	.	.	.	.	.	.	.	.	.	.	.	.	.	.	.	.	.	16a/JJ	.	16aa\JJ	.	16aa\JJ	.
8r	.	4r	.	4r	.	4r	.	.	8r	.	4r	4ryy	.	8r	.	8r	.	8r	.	8g/)	.	8gg\)	.	8gg\)	.
8GG/L	.	.	.	.	.	.	.	.	8GG/L	.	.	.	.	8ddL 8g/	.	8B\L	.	8aL 8d/	.	8ddL 8b'\	.	8gg\	.	8gg\	.
.	.	.	.	.	.	.	.	.	.	.	.	.	.	.	.	.	.	.	.	.	.	8qff#X/	.	8qff#X/	.
8C/	.	8r	.	8r	.	8r	.	.	8C/	.	8r	8ryy	.	8ee 8cc/	.	8c\	.	8b 8d/	.	8ee- 8cc'\	.	4ggT\	.	4ggT\	.
8E/J	.	8e 8c\	.	8gg 8cc\	.	8ccc 8ee\	.	.	8E/J	.	32G/LLL	8C\	.	8ccJ 8e/	.	8c\J	.	8gJ 8d/	.	8cc'\J	.	.	.	.	.
.	.	.	.	.	.	.	.	.	.	.	32G/	.	.	.	.	.	.	.	.	.	.	.	.	.	.
.	.	.	.	.	.	.	.	.	.	.	32G/	.	.	.	.	.	.	.	.	.	.	.	.	.	.
.	.	.	.	.	.	.	.	.	.	.	32G/JJJ	.	.	.	.	.	.	.	.	.	.	.	.	.	.
!!LO:PB:g=original
=52	=52	=52	=52	=52	=52	=52	=52	=52	=52	=52	=52	=52	=52	=52	=52	=52	=52	=52	=52	=52	=52	=52	=52	=52	=52
8G\	.	8d 8G/	.	8gg 8b\	.	8bb 8dd\	.	2.ryy	8G\	.	8G/	8C\	.	8dd 8g/	.	8B\	.	8a 8d/	.	8dd 8b\	.	8gg'\L	.	8gg'\L	.
8r	.	8r	.	8r	.	8r	.	.	8r	.	8r	8ryy	.	8r	.	8r	.	8r	.	(16f#X/LL	.	(>16ff#X\L	.	(>16ff#X\L	.
.	.	.	.	.	.	.	.	.	.	.	.	.	.	.	.	.	.	.	.	16a/JJ	.	16aa\JJ	.	16aa\JJ	.
8r	.	4r	.	4r	.	4r	.	.	8r	.	4r	4ryy	.	8r	.	8r	.	8r	.	8g/)	.	8gg\)	.	8gg\)	.
8GG/L	.	.	.	.	.	.	.	.	8GG/L	.	.	.	.	8ddL 8g/	.	8B\L	.	8aL 8d/	.	8ddL 8b\	.	8gg\	.	8gg\	.
.	.	.	.	.	.	.	.	.	.	.	.	.	.	.	.	.	.	.	.	.	.	8qff#X/	.	(<8qff#X/	.
8C/	.	8r	.	8r	.	8r	.	.	8C/	.	8r	8ryy	.	8ee-X 8cc/	.	8c\	.	8b-X 8d/	.	8ee-X 8cc\	.	4ggT\	.	4ggT\)	.
8E-X/J	.	8e-X 8c/	.	8gg 8cc\	.	8ccc 8ee-X\	.	.	8E-X/J	.	32G/LLL	8C\	.	8ccJ 8e-X/	.	8c\J	.	8gJ 8d/	.	8cc\J	.	.	.	.	.
.	.	.	.	.	.	.	.	.	.	.	32G/	.	.	.	.	.	.	.	.	.	.	.	.	.	.
.	.	.	.	.	.	.	.	.	.	.	32G/	.	.	.	.	.	.	.	.	.	.	.	.	.	.
.	.	.	.	.	.	.	.	.	.	.	32G/JJJ	.	.	.	.	.	.	.	.	.	.	.	.	.	.
=53	=53	=53	=53	=53	=53	=53	=53	=53	=53	=53	=53	=53	=53	=53	=53	=53	=53	=53	=53	=53	=53	=53	=53	=53	=53
8G\L	.	8dL 8G/	.	8ggL 8b\	.	8bbL 8dd\	.	2.ryy	8G\L	.	4G/	4C\	.	8ddL 8g/	.	8B\L	.	4a 4d/	.	8dd 8b\	.	8gg\L	.	8gg\L	.
16r	.	16r	.	16r	.	16rdd	.	.	16r	.	.	.	.	16r	.	16rA	.	.	.	16r	.	16r	.	16r	.
16G\Jk	.	16g/Jk	.	16g\Jk	.	16gg\Jk	.	.	16G\Jk	.	.	.	.	16gJk 16G/	.	16G\Jk	.	.	.	16g/	.	16gg\Jk	.	16gg\Jk	.
4D/	.	4d/	.	4b\	.	4bb\	.	.	4D\	.	4r	4ryy	.	4b 4B/	.	4D/	.	4r	.	4b\	.	4bb\	.	4bb\	.
4BB/	.	4B/	.	4dd\	.	4ddd\	.	.	4BB/	.	4r	4ryy	.	4dd 4d/	.	4BB/	.	4r	.	4dd\	.	4ddd\	.	4ddd\	.
=54	=54	=54	=54	=54	=54	=54	=54	=54	=54	=54	=54	=54	=54	=54	=54	=54	=54	=54	=54	=54	=54	=54	=54	=54	=54
.	.	.	.	.	.	.	.	.	.	.	32qqG/LLL	.	.	.	.	.	.	.	.	.	.	.	.	.	.
.	.	.	.	.	.	.	.	.	.	.	32qqG/JJJ	.	.	.	.	.	.	.	.	.	.	.	.	.	.
*	*	*	*	*	*	*	*	*	*	*	*	*	*	*	*	*	*	*	*	*^	*	*	*	*	*
4GG/	.	4b 4d 4G\	.	4ff 4dd 4g\	.	4fff\	.	8r	4GG/	.	4G/	4C\	.	4b 4d/	.	4GG/	.	4a 4d/	.	4ff/	4dd\	.	4bb\	.	4fff\	.
.	.	.	.	.	.	.	.	16r	.	.	.	.	.	.	.	.	.	.	.	.	.	.	.	.	.	.
!	!	!	!	!	!	!	!	!LO:TX:a:t=P:problem=te dźwięki zapisane na pięciolinii partii vl 1 z dopiskiem informującym, że mają być one wykonane przez vl solo	!	!	!	!	!	!	!	!	!	!	!	!	!	!	!	!	!	!
!	!	!	!	!	!	!	!	!LO:TX:a:i:t=Vo Solo	!	!	!	!	!	!	!	!	!	!	!	!	!	!	!	!	!	!
.	.	.	.	.	.	.	.	16gg/	.	.	.	.	.	.	.	.	.	.	.	.	.	.	.	.	.	.
.	.	.	.	.	.	.	.	(<8qff#X/	.	.	.	.	.	.	.	.	.	.	.	.	.	.	.	.	.	.
4r	.	4r	.	4r	.	4r	.	2gg/)	4r	.	2ryy	4r	.	4r	.	4r	.	8r	.	4r	4ryy	.	4r	.	4r	.
.	.	.	.	.	.	.	.	.	.	.	.	.	.	.	.	.	.	8ccL 8a\	.	.	.	.	.	.	.	.
4r	.	4r	.	4r	.	4r	.	.	4r	.	.	4r	.	4r	.	4r	.	8b 8g\	.	4r	4ryy	.	4r	.	4r	.
.	.	.	.	.	.	.	.	.	.	.	.	.	.	.	.	.	.	8aJ 8d\	.	.	.	.	.	.	.	.
*	*	*	*	*	*	*	*	*	*	*	*v	*v	*	*	*	*	*	*	*	*v	*v	*	*	*	*	*
!	!	!	!	!	!	!LO:TX:a:t=P:problem=ta adnotacja zapisana za ostatnim taktem	!	!	!	!	!	!	!	!	!	!	!	!	!	!	!	!	!	!
!	!	!	!	!	!	!LO:TX:a:i:t=d'al segno\nal fine\ne poi Polonez \nal fine.	!	!	!	!	!	!	!	!	!	!	!	!	!	!	!	!	!LO:TX:t=[segno]	!
=||	=||	=||	=||	=||	=||	=||	=||	=||	=||	=||	=||	=||	=||	=||	=||	=||	=||	=||	=||	=||	=||	=||	=||	=||
*-	*-	*-	*-	*-	*-	*-	*-	*-	*-	*-	*-	*-	*-	*-	*-	*-	*-	*-	*-	*-	*-	*-	*-	*-
!!!system-decoration: (s1,s2,s3,s4,s5,s6,s7,s8)(s9,s10,s11s12,s13)
!!!RDF**kern: | = vertical stroke
!!!RDF**kern: > = above
!!!RDF**kern: < = below
!!!EED: Antoni Szymański
!!!EST: 2021-07-01
!!!AIN: 1 cello 1 cor 1 empty 1 fagot 1 flt 1 oboe 1 picco 1 tromp 1 tromt 1 viola 3 violn
!!!ENC: Andrzej Gręziak
!!!END: 2021-06-16
